DEFDAT TMatriz
;FOLD Pallet 2 - Produto teste2
;FOLD LAYER 1: PLACE 1 ate 12
;FOLD PLACE 1
DECL E6POS P2_teste2_1_App1={X 550,Y 95,Z 100,A 0,B 0,C 180,S 2,T 2}
DECL E6POS P2_teste2_1_App2={X 550,Y 95,Z 100,A 0,B 0,C 180,S 2,T 2}
DECL E6POS P2_teste2_1_Place={X 610,Y 135,Z 0,A 0,B 0,C 180,S 2,T 2}
;ENDFOLD

;FOLD PLACE 2
DECL E6POS P2_teste2_2_App1={X 340,Y 95,Z 100,A 0,B 0,C 180,S 2,T 2}
DECL E6POS P2_teste2_2_App2={X 340,Y 95,Z 100,A 0,B 0,C 180,S 2,T 2}
DECL E6POS P2_teste2_2_Place={X 400,Y 135,Z 0,A 0,B 0,C 180,S 2,T 2}
;ENDFOLD

;FOLD PLACE 3
DECL E6POS P2_teste2_3_App1={X 130,Y 95,Z 100,A 0,B 0,C 180,S 2,T 2}
DECL E6POS P2_teste2_3_App2={X 130,Y 95,Z 100,A 0,B 0,C 180,S 2,T 2}
DECL E6POS P2_teste2_3_Place={X 190,Y 135,Z 0,A 0,B 0,C 180,S 2,T 2}
;ENDFOLD

;FOLD PLACE 4
DECL E6POS P2_teste2_4_App1={X 550,Y 405,Z 100,A 0,B 0,C 180,S 2,T 2}
DECL E6POS P2_teste2_4_App2={X 550,Y 405,Z 100,A 0,B 0,C 180,S 2,T 2}
DECL E6POS P2_teste2_4_Place={X 610,Y 445,Z 0,A 0,B 0,C 180,S 2,T 2}
;ENDFOLD

;FOLD PLACE 5
DECL E6POS P2_teste2_5_App1={X 340,Y 405,Z 100,A 0,B 0,C 180,S 2,T 2}
DECL E6POS P2_teste2_5_App2={X 340,Y 405,Z 100,A 0,B 0,C 180,S 2,T 2}
DECL E6POS P2_teste2_5_Place={X 400,Y 445,Z 0,A 0,B 0,C 180,S 2,T 2}
;ENDFOLD

;FOLD PLACE 6
DECL E6POS P2_teste2_6_App1={X 130,Y 405,Z 100,A 0,B 0,C 180,S 2,T 2}
DECL E6POS P2_teste2_6_App2={X 130,Y 405,Z 100,A 0,B 0,C 180,S 2,T 2}
DECL E6POS P2_teste2_6_Place={X 190,Y 445,Z 0,A 0,B 0,C 180,S 2,T 2}
;ENDFOLD

;FOLD PLACE 7
DECL E6POS P2_teste2_7_App1={X 550,Y 715,Z 100,A 0,B 0,C 180,S 2,T 2}
DECL E6POS P2_teste2_7_App2={X 550,Y 715,Z 100,A 0,B 0,C 180,S 2,T 2}
DECL E6POS P2_teste2_7_Place={X 610,Y 755,Z 0,A 0,B 0,C 180,S 2,T 2}
;ENDFOLD

;FOLD PLACE 8
DECL E6POS P2_teste2_8_App1={X 340,Y 715,Z 100,A 0,B 0,C 180,S 2,T 2}
DECL E6POS P2_teste2_8_App2={X 340,Y 715,Z 100,A 0,B 0,C 180,S 2,T 2}
DECL E6POS P2_teste2_8_Place={X 400,Y 755,Z 0,A 0,B 0,C 180,S 2,T 2}
;ENDFOLD

;FOLD PLACE 9
DECL E6POS P2_teste2_9_App1={X 130,Y 715,Z 100,A 0,B 0,C 180,S 2,T 2}
DECL E6POS P2_teste2_9_App2={X 130,Y 715,Z 100,A 0,B 0,C 180,S 2,T 2}
DECL E6POS P2_teste2_9_Place={X 190,Y 755,Z 0,A 0,B 0,C 180,S 2,T 2}
;ENDFOLD

;FOLD PLACE 10
DECL E6POS P2_teste2_10_App1={X 550,Y 1025,Z 100,A 0,B 0,C 180,S 2,T 2}
DECL E6POS P2_teste2_10_App2={X 550,Y 1025,Z 100,A 0,B 0,C 180,S 2,T 2}
DECL E6POS P2_teste2_10_Place={X 610,Y 1065,Z 0,A 0,B 0,C 180,S 2,T 2}
;ENDFOLD

;FOLD PLACE 11
DECL E6POS P2_teste2_11_App1={X 340,Y 1025,Z 100,A 0,B 0,C 180,S 2,T 2}
DECL E6POS P2_teste2_11_App2={X 340,Y 1025,Z 100,A 0,B 0,C 180,S 2,T 2}
DECL E6POS P2_teste2_11_Place={X 400,Y 1065,Z 0,A 0,B 0,C 180,S 2,T 2}
;ENDFOLD

;FOLD PLACE 12
DECL E6POS P2_teste2_12_App1={X 130,Y 1025,Z 100,A 0,B 0,C 180,S 2,T 2}
DECL E6POS P2_teste2_12_App2={X 130,Y 1025,Z 100,A 0,B 0,C 180,S 2,T 2}
DECL E6POS P2_teste2_12_Place={X 190,Y 1065,Z 0,A 0,B 0,C 180,S 2,T 2}
;ENDFOLD

;ENDFOLD
;FOLD LAYER 2: PLACE 13 ate 24
;FOLD PLACE 13
DECL E6POS P2_teste2_13_App1={X 550,Y 95,Z 300,A 0,B 0,C 180,S 2,T 2}
DECL E6POS P2_teste2_13_App2={X 550,Y 95,Z 300,A 0,B 0,C 180,S 2,T 2}
DECL E6POS P2_teste2_13_Place={X 610,Y 135,Z 200,A 0,B 0,C 180,S 2,T 2}
;ENDFOLD

;FOLD PLACE 14
DECL E6POS P2_teste2_14_App1={X 340,Y 95,Z 300,A 0,B 0,C 180,S 2,T 2}
DECL E6POS P2_teste2_14_App2={X 340,Y 95,Z 300,A 0,B 0,C 180,S 2,T 2}
DECL E6POS P2_teste2_14_Place={X 400,Y 135,Z 200,A 0,B 0,C 180,S 2,T 2}
;ENDFOLD

;FOLD PLACE 15
DECL E6POS P2_teste2_15_App1={X 130,Y 95,Z 300,A 0,B 0,C 180,S 2,T 2}
DECL E6POS P2_teste2_15_App2={X 130,Y 95,Z 300,A 0,B 0,C 180,S 2,T 2}
DECL E6POS P2_teste2_15_Place={X 190,Y 135,Z 200,A 0,B 0,C 180,S 2,T 2}
;ENDFOLD

;FOLD PLACE 16
DECL E6POS P2_teste2_16_App1={X 550,Y 405,Z 300,A 0,B 0,C 180,S 2,T 2}
DECL E6POS P2_teste2_16_App2={X 550,Y 405,Z 300,A 0,B 0,C 180,S 2,T 2}
DECL E6POS P2_teste2_16_Place={X 610,Y 445,Z 200,A 0,B 0,C 180,S 2,T 2}
;ENDFOLD

;FOLD PLACE 17
DECL E6POS P2_teste2_17_App1={X 340,Y 405,Z 300,A 0,B 0,C 180,S 2,T 2}
DECL E6POS P2_teste2_17_App2={X 340,Y 405,Z 300,A 0,B 0,C 180,S 2,T 2}
DECL E6POS P2_teste2_17_Place={X 400,Y 445,Z 200,A 0,B 0,C 180,S 2,T 2}
;ENDFOLD

;FOLD PLACE 18
DECL E6POS P2_teste2_18_App1={X 130,Y 405,Z 300,A 0,B 0,C 180,S 2,T 2}
DECL E6POS P2_teste2_18_App2={X 130,Y 405,Z 300,A 0,B 0,C 180,S 2,T 2}
DECL E6POS P2_teste2_18_Place={X 190,Y 445,Z 200,A 0,B 0,C 180,S 2,T 2}
;ENDFOLD

;FOLD PLACE 19
DECL E6POS P2_teste2_19_App1={X 550,Y 715,Z 300,A 0,B 0,C 180,S 2,T 2}
DECL E6POS P2_teste2_19_App2={X 550,Y 715,Z 300,A 0,B 0,C 180,S 2,T 2}
DECL E6POS P2_teste2_19_Place={X 610,Y 755,Z 200,A 0,B 0,C 180,S 2,T 2}
;ENDFOLD

;FOLD PLACE 20
DECL E6POS P2_teste2_20_App1={X 340,Y 715,Z 300,A 0,B 0,C 180,S 2,T 2}
DECL E6POS P2_teste2_20_App2={X 340,Y 715,Z 300,A 0,B 0,C 180,S 2,T 2}
DECL E6POS P2_teste2_20_Place={X 400,Y 755,Z 200,A 0,B 0,C 180,S 2,T 2}
;ENDFOLD

;FOLD PLACE 21
DECL E6POS P2_teste2_21_App1={X 130,Y 715,Z 300,A 0,B 0,C 180,S 2,T 2}
DECL E6POS P2_teste2_21_App2={X 130,Y 715,Z 300,A 0,B 0,C 180,S 2,T 2}
DECL E6POS P2_teste2_21_Place={X 190,Y 755,Z 200,A 0,B 0,C 180,S 2,T 2}
;ENDFOLD

;FOLD PLACE 22
DECL E6POS P2_teste2_22_App1={X 550,Y 1025,Z 300,A 0,B 0,C 180,S 2,T 2}
DECL E6POS P2_teste2_22_App2={X 550,Y 1025,Z 300,A 0,B 0,C 180,S 2,T 2}
DECL E6POS P2_teste2_22_Place={X 610,Y 1065,Z 200,A 0,B 0,C 180,S 2,T 2}
;ENDFOLD

;FOLD PLACE 23
DECL E6POS P2_teste2_23_App1={X 340,Y 1025,Z 300,A 0,B 0,C 180,S 2,T 2}
DECL E6POS P2_teste2_23_App2={X 340,Y 1025,Z 300,A 0,B 0,C 180,S 2,T 2}
DECL E6POS P2_teste2_23_Place={X 400,Y 1065,Z 200,A 0,B 0,C 180,S 2,T 2}
;ENDFOLD

;FOLD PLACE 24
DECL E6POS P2_teste2_24_App1={X 130,Y 1025,Z 300,A 0,B 0,C 180,S 2,T 2}
DECL E6POS P2_teste2_24_App2={X 130,Y 1025,Z 300,A 0,B 0,C 180,S 2,T 2}
DECL E6POS P2_teste2_24_Place={X 190,Y 1065,Z 200,A 0,B 0,C 180,S 2,T 2}
;ENDFOLD

;ENDFOLD
;ENDFOLD
ENDDAT