;FOLD Pallet 2 - Produto 1Aero
;FOLD PLACE 1
DECL E6POS P2_1Aero_1_App1={X 651.0876,Y -48.54808,Z 1170.80361,A -90,B 0,C 180,S 2,T 35,E1 0,E2 0,E3 0,E4 0,E5 0,E6 0}
DECL E6POS P2_1Aero_1_App2={X 651.08792,Y -48.54798,Z 1070.80413,A -90,B 0,C 180,S 2,T 35,E1 0,E2 0,E3 0,E4 0,E5 0,E6 0}
DECL E6POS P2_1Aero_1_Place={X 651.08792,Y 51.45202,Z 870.80413,A -90,B 0,C 180,S 2,T 35,E1 0,E2 0,E3 0,E4 0,E5 0,E6 0}
;ENDFOLD

;FOLD PLACE 2
DECL E6POS P2_1Aero_2_App1={X 651.08761,Y -376.54834,Z 1270.804,A -90,B 0,C 180,S 2,T 35,E1 0,E2 0,E3 0,E4 0,E5 0,E6 0}
DECL E6POS P2_1Aero_2_App2={X 651.08792,Y -376.54798,Z 1070.80413,A -90,B 0,C 180,S 2,T 35,E1 0,E2 0,E3 0,E4 0,E5 0,E6 0}
DECL E6POS P2_1Aero_2_Place={X 651.08792,Y -276.54798,Z 870.80413,A -90,B 0,C 180,S 2,T 35,E1 0,E2 0,E3 0,E4 0,E5 0,E6 0}
;ENDFOLD

;FOLD PLACE 3
DECL E6POS P2_1Aero_3_App1={X 651.08716,Y -704.54813,Z 1270.804,A -90,B 0,C 180,S 2,T 35,E1 0,E2 0,E3 0,E4 0,E5 0,E6 0}
DECL E6POS P2_1Aero_3_App2={X 651.08792,Y -704.54798,Z 1070.80413,A -90,B 0,C 180,S 2,T 35,E1 0,E2 0,E3 0,E4 0,E5 0,E6 0}
DECL E6POS P2_1Aero_3_Place={X 651.08792,Y -604.54798,Z 870.80413,A -90,B 0,C 180,S 2,T 35,E1 0,E2 0,E3 0,E4 0,E5 0,E6 0}
;ENDFOLD

;FOLD PLACE 4
DECL E6POS P2_1Aero_4_App1={X 343.35464,Y -427.29677,Z 1270.80434,A -180,B 0,C 180,S 2,T 3,E1 0,E2 0,E3 0,E4 0,E5 0,E6 0}
DECL E6POS P2_1Aero_4_App2={X 343.35516,Y -427.29669,Z 1070.80388,A -180,B 0,C -180,S 2,T 3,E1 0,E2 0,E3 0,E4 0,E5 0,E6 0}
DECL E6POS P2_1Aero_4_Place={X 393.35516,Y -427.29669,Z 870.80388,A -180,B 0,C -180,S 2,T 3,E1 0,E2 0,E3 0,E4 0,E5 0,E6 0}
;ENDFOLD

;FOLD PLACE 5
DECL E6POS P2_1Aero_5_App1={X 393.35516,Y -427.29669,Z 920.80388,A -180,B 0,C -180,S 2,T 3,E1 0,E2 0,E3 0,E4 0,E5 0,E6 0}
DECL E6POS P2_1Aero_5_App2={X 393.35516,Y -400.29669,Z 920.80388,A -180,B 0,C -180,S 2,T 3,E1 0,E2 0,E3 0,E4 0,E5 0,E6 0}
DECL E6POS P2_1Aero_5_Place={X 393.35516,Y -400.29669,Z 870.80388,A -180,B 0,C -180,S 2,T 3,E1 0,E2 0,E3 0,E4 0,E5 0,E6 0}
;ENDFOLD

;FOLD PLACE 6
DECL E6POS P2_1Aero_6_App1={X 393.35516,Y -400.29669,Z 920.80388,A -180,B 0,C -180,S 2,T 3,E1 0,E2 0,E3 0,E4 0,E5 0,E6 0}
DECL E6POS P2_1Aero_6_App2={X 393.35516,Y -373.29669,Z 920.80388,A -180,B 0,C -180,S 2,T 3,E1 0,E2 0,E3 0,E4 0,E5 0,E6 0}
DECL E6POS P2_1Aero_6_Place={X 393.35516,Y -373.29669,Z 870.80388,A -180,B 0,C -180,S 2,T 3,E1 0,E2 0,E3 0,E4 0,E5 0,E6 0}
;ENDFOLD

;FOLD PLACE 7
DECL E6POS P2_1Aero_7_App1={X 393.35516,Y -373.29669,Z 920.80388,A -180,B 0,C -180,S 2,T 3,E1 0,E2 0,E3 0,E4 0,E5 0,E6 0}
DECL E6POS P2_1Aero_7_App2={X 393.35516,Y -346.29669,Z 920.80388,A -180,B 0,C -180,S 2,T 3,E1 0,E2 0,E3 0,E4 0,E5 0,E6 0}
DECL E6POS P2_1Aero_7_Place={X 393.35516,Y -346.29669,Z 870.80388,A -180,B 0,C -180,S 2,T 3,E1 0,E2 0,E3 0,E4 0,E5 0,E6 0}
;ENDFOLD

;FOLD PLACE 8
DECL E6POS P2_1Aero_8_App1={X 393.35516,Y -345.29669,Z 920.80388,A -180,B 0,C -180,S 2,T 3,E1 0,E2 0,E3 0,E4 0,E5 0,E6 0}
DECL E6POS P2_1Aero_8_App2={X 393.35516,Y -318.29669,Z 920.80388,A -180,B 0,C -180,S 2,T 3,E1 0,E2 0,E3 0,E4 0,E5 0,E6 0}
DECL E6POS P2_1Aero_8_Place={X 393.35516,Y -318.29669,Z 870.80388,A -180,B 0,C -180,S 2,T 3,E1 0,E2 0,E3 0,E4 0,E5 0,E6 0}
;ENDFOLD

;FOLD PLACE 9
DECL E6POS P2_1Aero_9_App1={X 1218.35464,Y -427.29677,Z 1617.80434,A -180,B 0,C 180,S 2,T 3,E1 0,E2 0,E3 0,E4 0,E5 0,E6 0}
DECL E6POS P2_1Aero_9_App2={X 1218.35516,Y -427.29669,Z 1417.80388,A -180,B 0,C -180,S 2,T 3,E1 0,E2 0,E3 0,E4 0,E5 0,E6 0}
DECL E6POS P2_1Aero_9_Place={X 1268.35516,Y -427.29669,Z 1217.80388,A -180,B 0,C -180,S 2,T 3,E1 0,E2 0,E3 0,E4 0,E5 0,E6 0}
;ENDFOLD

;FOLD PLACE 10
DECL E6POS P2_1Aero_10_App1={X 1268.35516,Y -427.29669,Z 1267.80388,A -180,B 0,C -180,S 2,T 3,E1 0,E2 0,E3 0,E4 0,E5 0,E6 0}
DECL E6POS P2_1Aero_10_App2={X 1268.35516,Y -400.29669,Z 1267.80388,A -180,B 0,C -180,S 2,T 3,E1 0,E2 0,E3 0,E4 0,E5 0,E6 0}
DECL E6POS P2_1Aero_10_Place={X 1268.35516,Y -400.29669,Z 1217.80388,A -180,B 0,C -180,S 2,T 3,E1 0,E2 0,E3 0,E4 0,E5 0,E6 0}
;ENDFOLD

;FOLD PLACE 11
DECL E6POS P2_1Aero_11_App1={X 1268.35516,Y -400.29669,Z 1267.80388,A -180,B 0,C -180,S 2,T 3,E1 0,E2 0,E3 0,E4 0,E5 0,E6 0}
DECL E6POS P2_1Aero_11_App2={X 1268.35516,Y -373.29669,Z 1267.80388,A -180,B 0,C -180,S 2,T 3,E1 0,E2 0,E3 0,E4 0,E5 0,E6 0}
DECL E6POS P2_1Aero_11_Place={X 1268.35516,Y -373.29669,Z 1217.80388,A -180,B 0,C -180,S 2,T 3,E1 0,E2 0,E3 0,E4 0,E5 0,E6 0}
;ENDFOLD

;FOLD PLACE 12
DECL E6POS P2_1Aero_12_App1={X 1268.35516,Y -373.29669,Z 1267.80388,A -180,B 0,C -180,S 2,T 3,E1 0,E2 0,E3 0,E4 0,E5 0,E6 0}
DECL E6POS P2_1Aero_12_App2={X 1268.35516,Y -346.29669,Z 1267.80388,A -180,B 0,C -180,S 2,T 3,E1 0,E2 0,E3 0,E4 0,E5 0,E6 0}
DECL E6POS P2_1Aero_12_Place={X 1268.35516,Y -346.29669,Z 1217.80388,A -180,B 0,C -180,S 2,T 3,E1 0,E2 0,E3 0,E4 0,E5 0,E6 0}
;ENDFOLD

;FOLD PLACE 13
DECL E6POS P2_1Aero_13_App1={X 1268.35516,Y -345.29669,Z 920.804,A -180,B 0,C -180,S 2,T 3,E1 0,E2 0,E3 0,E4 0,E5 0,E6 0}
DECL E6POS P2_1Aero_13_App2={X 1268.35516,Y -318.29669,Z 920.804,A -180,B 0,C -180,S 2,T 3,E1 0,E2 0,E3 0,E4 0,E5 0,E6 0}
DECL E6POS P2_1Aero_13_Place={X 1268.35516,Y -318.29669,Z 870.804,A -180,B 0,C -180,S 2,T 3,E1 0,E2 0,E3 0,E4 0,E5 0,E6 0}
;ENDFOLD

;FOLD PLACE 14
DECL E6POS P2_1Aero_14_App1={X 273.08792,Y -48.54787,Z 1170.8,A -90,B 0,C 180,S 2,T 35,E1 0,E2 0,E3 0,E4 0,E5 0,E6 0}
DECL E6POS P2_1Aero_14_App2={X 273.08792,Y -48.54798,Z 1070.8,A -90,B 0,C 180,S 2,T 35,E1 0,E2 0,E3 0,E4 0,E5 0,E6 0}
DECL E6POS P2_1Aero_14_Place={X 323.08792,Y 51.45202,Z 870.804,A -90,B 0,C 180,S 2,T 35,E1 0,E2 0,E3 0,E4 0,E5 0,E6 0}
;ENDFOLD

;FOLD PLACE 15
DECL E6POS P2_1Aero_15_App1={X 273.08792,Y -376.54792,Z 1170.8,A -90,B 0,C 180,S 2,T 35,E1 0,E2 0,E3 0,E4 0,E5 0,E6 0}
DECL E6POS P2_1Aero_15_App2={X 273.08792,Y -376.54798,Z 1070.8,A -90,B 0,C 180,S 2,T 35,E1 0,E2 0,E3 0,E4 0,E5 0,E6 0}
DECL E6POS P2_1Aero_15_Place={X 323.08792,Y -276.54798,Z 870.804,A -90,B 0,C 180,S 2,T 35,E1 0,E2 0,E3 0,E4 0,E5 0,E6 0}
;ENDFOLD

;FOLD PLACE 16
DECL E6POS P2_1Aero_16_App1={X 273.08792,Y -704.54823,Z 1170.8,A -90,B 0,C 180,S 2,T 35,E1 0,E2 0,E3 0,E4 0,E5 0,E6 0}
DECL E6POS P2_1Aero_16_App2={X 273.08792,Y -704.54798,Z 1070.8,A -90,B 0,C 180,S 2,T 35,E1 0,E2 0,E3 0,E4 0,E5 0,E6 0}
DECL E6POS P2_1Aero_16_Place={X 323.08792,Y -604.54798,Z 870.804,A -90,B 0,C 180,S 2,T 35,E1 0,E2 0,E3 0,E4 0,E5 0,E6 0}
;ENDFOLD

;FOLD PLACE 17
DECL E6POS P2_1Aero_17_App1={X 543.35516,Y -427.29655,Z 1421.8,A -180,B 0,C 180,S 2,T 3,E1 0,E2 0,E3 0,E4 0,E5 0,E6 0}
DECL E6POS P2_1Aero_17_App2={X 543.35516,Y -427.29669,Z 1321.8,A -180,B 0,C -180,S 2,T 3,E1 0,E2 0,E3 0,E4 0,E5 0,E6 0}
DECL E6POS P2_1Aero_17_Place={X 393.35516,Y -427.29669,Z 1221.8,A -180,B 0,C -180,S 2,T 3,E1 0,E2 0,E3 0,E4 0,E5 0,E6 0}
;ENDFOLD

;FOLD PLACE 18
DECL E6POS P2_1Aero_18_App1={X 393.35516,Y -427.29669,Z 1321.8,A -180,B 0,C -180,S 2,T 3,E1 0,E2 0,E3 0,E4 0,E5 0,E6 0}
DECL E6POS P2_1Aero_18_App2={X 393.35516,Y -400.29669,Z 1271.8,A -180,B 0,C -180,S 2,T 3,E1 0,E2 0,E3 0,E4 0,E5 0,E6 0}
DECL E6POS P2_1Aero_18_Place={X 393.35516,Y -400.29669,Z 1221.8,A -180,B 0,C -180,S 2,T 3,E1 0,E2 0,E3 0,E4 0,E5 0,E6 0}
;ENDFOLD

;FOLD PLACE 19
DECL E6POS P2_1Aero_19_App1={X 393.35516,Y -400.29669,Z 1271.8,A -180,B 0,C -180,S 2,T 3,E1 0,E2 0,E3 0,E4 0,E5 0,E6 0}
DECL E6POS P2_1Aero_19_App2={X 393.35516,Y -373.29669,Z 1271.8,A -180,B 0,C -180,S 2,T 3,E1 0,E2 0,E3 0,E4 0,E5 0,E6 0}
DECL E6POS P2_1Aero_19_Place={X 393.35516,Y -373.29669,Z 1221.8,A -180,B 0,C -180,S 2,T 3,E1 0,E2 0,E3 0,E4 0,E5 0,E6 0}
;ENDFOLD

;FOLD PLACE 20
DECL E6POS P2_1Aero_20_App1={X 393.35516,Y -373.29669,Z 1271.8,A -180,B 0,C -180,S 2,T 3,E1 0,E2 0,E3 0,E4 0,E5 0,E6 0}
DECL E6POS P2_1Aero_20_App2={X 393.35516,Y -346.29669,Z 1271.8,A -180,B 0,C -180,S 2,T 3,E1 0,E2 0,E3 0,E4 0,E5 0,E6 0}
DECL E6POS P2_1Aero_20_Place={X 393.35516,Y -346.29669,Z 1221.8,A -180,B 0,C -180,S 2,T 3,E1 0,E2 0,E3 0,E4 0,E5 0,E6 0}
;ENDFOLD

;FOLD PLACE 21
DECL E6POS P2_1Aero_21_App1={X 393.35516,Y -345.29669,Z 1271.8,A -180,B 0,C -180,S 2,T 3,E1 0,E2 0,E3 0,E4 0,E5 0,E6 0}
DECL E6POS P2_1Aero_21_App2={X 393.35516,Y -318.29669,Z 1271.8,A -180,B 0,C -180,S 2,T 3,E1 0,E2 0,E3 0,E4 0,E5 0,E6 0}
DECL E6POS P2_1Aero_21_Place={X 393.35516,Y -318.29669,Z 1221.8,A -180,B 0,C -180,S 2,T 3,E1 0,E2 0,E3 0,E4 0,E5 0,E6 0}
;ENDFOLD

;FOLD PLACE 22
DECL E6POS P2_1Aero_22_App1={X 998.61594,Y -944.55631,Z 1667.8,A 90,B 0,C -180,S 2,T 3,E1 0,E2 0,E3 0,E4 0,E5 0,E6 0}
DECL E6POS P2_1Aero_22_App2={X 998.6157,Y -944.55629,Z 1317.8,A 90,B 0,C 180,S 2,T 3,E1 0,E2 0,E3 0,E4 0,E5 0,E6 0}
DECL E6POS P2_1Aero_22_Place={X 898.6157,Y -1044.55629,Z 1217.8,A 90,B 0,C 180,S 2,T 3,E1 0,E2 0,E3 0,E4 0,E5 0,E6 0}
;ENDFOLD

;FOLD PLACE 23
DECL E6POS P2_1Aero_23_App1={X 998.61605,Y -616.55607,Z 1667.8,A 90,B 0,C -180,S 2,T 3,E1 0,E2 0,E3 0,E4 0,E5 0,E6 0}
DECL E6POS P2_1Aero_23_App2={X 998.6157,Y -616.55629,Z 1317.8,A 90,B 0,C 180,S 2,T 3,E1 0,E2 0,E3 0,E4 0,E5 0,E6 0}
DECL E6POS P2_1Aero_23_Place={X 898.6157,Y -716.55629,Z 1217.8,A 90,B 0,C 180,S 2,T 3,E1 0,E2 0,E3 0,E4 0,E5 0,E6 0}
;ENDFOLD

;FOLD PLACE 24
DECL E6POS P2_1Aero_24_App1={X 998.61573,Y -288.55637,Z 1667.8,A 90,B 0,C -180,S 2,T 3,E1 0,E2 0,E3 0,E4 0,E5 0,E6 0}
DECL E6POS P2_1Aero_24_App2={X 998.6157,Y -288.55629,Z 1317.8,A 90,B 0,C 180,S 2,T 3,E1 0,E2 0,E3 0,E4 0,E5 0,E6 0}
DECL E6POS P2_1Aero_24_Place={X 898.6157,Y -388.55629,Z 1217.8,A 90,B 0,C 180,S 2,T 3,E1 0,E2 0,E3 0,E4 0,E5 0,E6 0}
;ENDFOLD

;ENDFOLD

;FOLD Pallet 2 - Produto 2Aero
;FOLD PLACE 1
DECL E6POS P2_2Aero_1_App1={X 548.88499,Y -68.23916,Z 1114.55813,A -90,B 0,C 180,S 2,T 35,E1 0,E2 0,E3 0,E4 0,E5 0,E6 0}
DECL E6POS P2_2Aero_1_App2={X 548.88503,Y -68.23958,Z 914.55818,A -90,B 0,C 180,S 2,T 35,E1 0,E2 0,E3 0,E4 0,E5 0,E6 0}
DECL E6POS P2_2Aero_1_Place={X 548.88552,Y 31.76059,Z 814.55872,A -90,B 0,C 180,S 2,T 35,E1 0,E2 0,E3 0,E4 0,E5 0,E6 0}
;ENDFOLD

;FOLD PLACE 2
DECL E6POS P2_2Aero_2_App1={X 548.88549,Y -379.23915,Z 1114.55842,A -90,B 0,C 180,S 2,T 35,E1 0,E2 0,E3 0,E4 0,E5 0,E6 0}
DECL E6POS P2_2Aero_2_App2={X 548.88555,Y -379.23964,Z 914.55731,A -90,B 0,C 180,S 2,T 35,E1 0,E2 0,E3 0,E4 0,E5 0,E6 0}
DECL E6POS P2_2Aero_2_Place={X 548.88531,Y -279.23915,Z 814.55827,A -90,B 0,C 180,S 2,T 35,E1 0,E2 0,E3 0,E4 0,E5 0,E6 0}
;ENDFOLD

;FOLD PLACE 3
DECL E6POS P2_2Aero_3_App1={X 548.88596,Y -690.23907,Z 1114.55772,A -90,B 0,C 180,S 2,T 35,E1 0,E2 0,E3 0,E4 0,E5 0,E6 0}
DECL E6POS P2_2Aero_3_App2={X 548.88602,Y -690.23957,Z 914.55732,A -90,B 0,C 180,S 2,T 35,E1 0,E2 0,E3 0,E4 0,E5 0,E6 0}
DECL E6POS P2_2Aero_3_Place={X 548.88453,Y -590.23945,Z 814.55813,A -90,B 0,C 180,S 2,T 35,E1 0,E2 0,E3 0,E4 0,E5 0,E6 0}
;ENDFOLD

;ENDFOLD

;FOLD Pallet 2 - Produto 5Aero
;FOLD PLACE 1
DECL E6POS P2_5Aero_1_App1={X 1100.19013,Y -361.3956,Z 1064.55966,A 180,B 0,C 180,S 2,T 35,E1 0,E2 0,E3 0,E4 0,E5 0,E6 0}
DECL E6POS P2_5Aero_1_App2={X 1100.19109,Y -361.39559,Z 914.55854,A -180,B 0,C 180,S 2,T 35,E1 0,E2 0,E3 0,E4 0,E5 0,E6 0}
DECL E6POS P2_5Aero_1_Place={X 1200.19026,Y -361.39557,Z 814.55914,A 180,B 0,C 180,S 2,T 35,E1 0,E2 0,E3 0,E4 0,E5 0,E6 0}
;ENDFOLD

;FOLD PLACE 2
DECL E6POS P2_5Aero_2_App1={X 740.1904,Y -361.39575,Z 1064.55904,A 180,B 0,C -180,S 2,T 35,E1 0,E2 0,E3 0,E4 0,E5 0,E6 0}
DECL E6POS P2_5Aero_2_App2={X 740.19091,Y -361.39576,Z 914.55853,A 180,B 0,C -180,S 2,T 35,E1 0,E2 0,E3 0,E4 0,E5 0,E6 0}
DECL E6POS P2_5Aero_2_Place={X 840.19068,Y -361.39567,Z 814.55885,A 180,B 0,C 180,S 2,T 35,E1 0,E2 0,E3 0,E4 0,E5 0,E6 0}
;ENDFOLD

;FOLD PLACE 3
DECL E6POS P2_5Aero_3_App1={X 380.19008,Y -361.39565,Z 1064.55907,A 180,B 0,C -180,S 2,T 35,E1 0,E2 0,E3 0,E4 0,E5 0,E6 0}
DECL E6POS P2_5Aero_3_App2={X 380.1905,Y -361.39547,Z 914.5591,A -180,B 0,C 180,S 2,T 35,E1 0,E2 0,E3 0,E4 0,E5 0,E6 0}
DECL E6POS P2_5Aero_3_Place={X 480.1904,Y -361.39581,Z 814.55931,A -180,B 0,C -180,S 2,T 35,E1 0,E2 0,E3 0,E4 0,E5 0,E6 0}
;ENDFOLD

;ENDFOLD

;FOLD Pallet 2 - Produto 17KitKat
;FOLD PLACE 1
DECL E6POS P2_17KitKat_1_App1={X 1164.97133,Y -328.9018,Z 1114.58702,A -180,B 0,C 180,S 2,T 35,E1 0,E2 0,E3 0,E4 0,E5 0,E6 0}
DECL E6POS P2_17KitKat_1_App2={X 1164.97124,Y -328.90201,Z 964.58697,A 180,B 0,C 180,S 2,T 35,E1 0,E2 0,E3 0,E4 0,E5 0,E6 0}
DECL E6POS P2_17KitKat_1_Place={X 1264.97156,Y -328.9018,Z 814.58693,A 180,B 0,C -180,S 2,T 35,E1 0,E2 0,E3 0,E4 0,E5 0,E6 0}
;ENDFOLD

;FOLD PLACE 2
DECL E6POS P2_17KitKat_2_App1={X 864.97209,Y -328.90155,Z 1114.58693,A -180,B 0,C 180,S 2,T 35,E1 0,E2 0,E3 0,E4 0,E5 0,E6 0}
DECL E6POS P2_17KitKat_2_App2={X 864.97244,Y -328.90212,Z 964.58694,A 180,B 0,C -180,S 2,T 35,E1 0,E2 0,E3 0,E4 0,E5 0,E6 0}
DECL E6POS P2_17KitKat_2_Place={X 964.97194,Y -328.90202,Z 814.58663,A 180,B 0,C 180,S 2,T 35,E1 0,E2 0,E3 0,E4 0,E5 0,E6 0}
;ENDFOLD

;FOLD PLACE 3
DECL E6POS P2_17KitKat_3_App1={X 564.97227,Y -328.90224,Z 1114.58651,A -180,B 0,C 180,S 2,T 35,E1 0,E2 0,E3 0,E4 0,E5 0,E6 0}
DECL E6POS P2_17KitKat_3_App2={X 564.97232,Y -328.90204,Z 964.58683,A -180,B 0,C -180,S 2,T 35,E1 0,E2 0,E3 0,E4 0,E5 0,E6 0}
DECL E6POS P2_17KitKat_3_Place={X 664.97218,Y -328.90207,Z 814.5867,A 180,B 0,C -180,S 2,T 35,E1 0,E2 0,E3 0,E4 0,E5 0,E6 0}
;ENDFOLD

;FOLD PLACE 4
DECL E6POS P2_17KitKat_4_App1={X 314.97186,Y -328.90226,Z 1114.58777,A -180,B 0,C -180,S 2,T 35,E1 0,E2 0,E3 0,E4 0,E5 0,E6 0}
DECL E6POS P2_17KitKat_4_App2={X 314.97221,Y -328.902,Z 964.5866,A 180,B 0,C -180,S 2,T 35,E1 0,E2 0,E3 0,E4 0,E5 0,E6 0}
DECL E6POS P2_17KitKat_4_Place={X 364.97196,Y -328.90185,Z 814.58667,A -180,B 0,C 180,S 2,T 35,E1 0,E2 0,E3 0,E4 0,E5 0,E6 0}
;ENDFOLD

;ENDFOLD

;FOLD Pallet 2 - Produto 20KitKat
;FOLD PLACE 1
DECL E6POS P2_20KitKat_1_App1={X 572.69876,Y -60.28636,Z 984.57724,A -90,B 0,C 180,S 2,T 35,E1 0,E2 0,E3 0,E4 0,E5 0,E6 0}
DECL E6POS P2_20KitKat_1_App2={X 572.69872,Y -60.28599,Z 864.5794,A -90,B 0,C 180,S 2,T 35,E1 0,E2 0,E3 0,E4 0,E5 0,E6 0}
DECL E6POS P2_20KitKat_1_Place={X 572.69823,Y 39.71353,Z 814.57776,A -90,B 0,C 180,S 2,T 35,E1 0,E2 0,E3 0,E4 0,E5 0,E6 0}
;ENDFOLD

;FOLD PLACE 2
DECL E6POS P2_20KitKat_2_App1={X 572.71587,Y -326.28876,Z 984.57652,A -90,B 0,C 180,S 2,T 35,E1 0,E2 0,E3 0,E4 0,E5 0,E6 0}
DECL E6POS P2_20KitKat_2_App2={X 572.7158,Y -326.2882,Z 864.57941,A -90,B 0,C 180,S 2,T 35,E1 0,E2 0,E3 0,E4 0,E5 0,E6 0}
DECL E6POS P2_20KitKat_2_Place={X 572.71592,Y -276.28848,Z 814.57799,A -90,B 0,C 180,S 2,T 35,E1 0,E2 0,E3 0,E4 0,E5 0,E6 0}
;ENDFOLD

;FOLD PLACE 3
DECL E6POS P2_20KitKat_3_App1={X 572.6987,Y -642.28053,Z 984.57749,A -90,B 0,C 180,S 2,T 35,E1 0,E2 0,E3 0,E4 0,E5 0,E6 0}
DECL E6POS P2_20KitKat_3_App2={X 572.69872,Y -642.28071,Z 864.57933,A -90,B 0,C 180,S 2,T 35,E1 0,E2 0,E3 0,E4 0,E5 0,E6 0}
DECL E6POS P2_20KitKat_3_Place={X 572.69799,Y -592.28052,Z 814.57699,A -90,B 0,C 180,S 2,T 35,E1 0,E2 0,E3 0,E4 0,E5 0,E6 0}
;ENDFOLD

;ENDFOLD

;FOLD Pallet 2 - Produto 11CoffeCrisp
;FOLD PLACE 1
DECL E6POS P2_11CoffeCrisp_1_App1={X 1151.36786,Y -356.12176,Z 1064.5494,A -180,B 0,C 180,S 2,T 35,E1 0,E2 0,E3 0,E4 0,E5 0,E6 0}
DECL E6POS P2_11CoffeCrisp_1_App2={X 1151.36819,Y -356.12194,Z 964.54979,A 180,B 0,C -180,S 2,T 35,E1 0,E2 0,E3 0,E4 0,E5 0,E6 0}
DECL E6POS P2_11CoffeCrisp_1_Place={X 1251.36773,Y -356.12178,Z 814.55016,A 180,B 0,C -180,S 2,T 35,E1 0,E2 0,E3 0,E4 0,E5 0,E6 0}
;ENDFOLD

;FOLD PLACE 2
DECL E6POS P2_11CoffeCrisp_2_App1={X 757.36759,Y -356.12217,Z 1064.55065,A -180,B 0,C 180,S 2,T 35,E1 0,E2 0,E3 0,E4 0,E5 0,E6 0}
DECL E6POS P2_11CoffeCrisp_2_App2={X 757.36707,Y -356.12216,Z 964.55002,A 180,B 0,C 180,S 2,T 35,E1 0,E2 0,E3 0,E4 0,E5 0,E6 0}
DECL E6POS P2_11CoffeCrisp_2_Place={X 857.36783,Y -356.12166,Z 814.55037,A 180,B 0,C -180,S 2,T 35,E1 0,E2 0,E3 0,E4 0,E5 0,E6 0}
;ENDFOLD

;FOLD PLACE 3
DECL E6POS P2_11CoffeCrisp_3_App1={X 363.36782,Y -356.12184,Z 1064.54989,A -180,B 0,C 180,S 2,T 35,E1 0,E2 0,E3 0,E4 0,E5 0,E6 0}
DECL E6POS P2_11CoffeCrisp_3_App2={X 363.36773,Y -356.12215,Z 964.55039,A 180,B 0,C -180,S 2,T 35,E1 0,E2 0,E3 0,E4 0,E5 0,E6 0}
DECL E6POS P2_11CoffeCrisp_3_Place={X 463.36751,Y -356.12168,Z 814.54997,A 180,B 0,C 180,S 2,T 35,E1 0,E2 0,E3 0,E4 0,E5 0,E6 0}
;ENDFOLD

;ENDFOLD

;FOLD Pallet 2 - Produto 21KitKat
;FOLD PLACE 1
DECL E6POS P2_21KitKat_1_App1={X 543.68163,Y -70.79127,Z 1064.5138,A -90,B 0,C 180,S 2,T 35,E1 0,E2 0,E3 0,E4 0,E5 0,E6 0}
DECL E6POS P2_21KitKat_1_App2={X 543.68165,Y -70.79145,Z 964.51414,A -90,B 0,C 180,S 2,T 35,E1 0,E2 0,E3 0,E4 0,E5 0,E6 0}
DECL E6POS P2_21KitKat_1_Place={X 543.68189,Y 29.20866,Z 814.51421,A -90,B 0,C 180,S 2,T 35,E1 0,E2 0,E3 0,E4 0,E5 0,E6 0}
;ENDFOLD

;FOLD PLACE 2
DECL E6POS P2_21KitKat_2_App1={X 543.6826,Y -380.79111,Z 1064.51482,A -90,B 0,C 180,S 2,T 35,E1 0,E2 0,E3 0,E4 0,E5 0,E6 0}
DECL E6POS P2_21KitKat_2_App2={X 543.68261,Y -380.7912,Z 964.51426,A -90,B 0,C 180,S 2,T 35,E1 0,E2 0,E3 0,E4 0,E5 0,E6 0}
DECL E6POS P2_21KitKat_2_Place={X 543.68162,Y -280.79183,Z 814.51402,A -90,B 0,C 180,S 2,T 35,E1 0,E2 0,E3 0,E4 0,E5 0,E6 0}
;ENDFOLD

;FOLD PLACE 3
DECL E6POS P2_21KitKat_3_App1={X 543.68221,Y -690.79115,Z 1064.51435,A -90,B 0,C 180,S 2,T 35,E1 0,E2 0,E3 0,E4 0,E5 0,E6 0}
DECL E6POS P2_21KitKat_3_App2={X 543.68222,Y -690.79122,Z 964.51373,A -90,B 0,C 180,S 2,T 35,E1 0,E2 0,E3 0,E4 0,E5 0,E6 0}
DECL E6POS P2_21KitKat_3_Place={X 543.68187,Y -590.791,Z 814.51382,A -90,B 0,C 180,S 2,T 35,E1 0,E2 0,E3 0,E4 0,E5 0,E6 0}
;ENDFOLD

;ENDFOLD

;FOLD Pallet 2 - Produto 30All
;FOLD PLACE 1
DECL E6POS P2_30All_1_App1={X 1121.61955,Y -600.37581,Z 1014.58069,A -180,B 0,C 180,S 2,T 35,E1 0,E2 0,E3 0,E4 0,E5 0,E6 0}
DECL E6POS P2_30All_1_App2={X 1121.61952,Y -600.37565,Z 914.58052,A -180,B 0,C 180,S 2,T 35,E1 0,E2 0,E3 0,E4 0,E5 0,E6 0}
DECL E6POS P2_30All_1_Place={X 1221.62029,Y -600.37588,Z 814.58116,A -180,B 0,C 180,S 2,T 35,E1 0,E2 0,E3 0,E4 0,E5 0,E6 0}
;ENDFOLD

;FOLD PLACE 2
DECL E6POS P2_30All_2_App1={X 841.61844,Y -600.37582,Z 1014.58086,A -180,B 0,C 180,S 2,T 35,E1 0,E2 0,E3 0,E4 0,E5 0,E6 0}
DECL E6POS P2_30All_2_App2={X 841.61889,Y -600.37591,Z 914.5811,A -180,B 0,C 180,S 2,T 35,E1 0,E2 0,E3 0,E4 0,E5 0,E6 0}
DECL E6POS P2_30All_2_Place={X 941.61934,Y -600.37549,Z 814.58096,A -180,B 0,C 180,S 2,T 35,E1 0,E2 0,E3 0,E4 0,E5 0,E6 0}
;ENDFOLD

;FOLD PLACE 3
DECL E6POS P2_30All_3_App1={X 561.61963,Y -600.3759,Z 1014.58096,A -180,B 0,C 180,S 2,T 35,E1 0,E2 0,E3 0,E4 0,E5 0,E6 0}
DECL E6POS P2_30All_3_App2={X 561.61982,Y -600.37581,Z 914.58075,A -180,B 0,C -180,S 2,T 35,E1 0,E2 0,E3 0,E4 0,E5 0,E6 0}
DECL E6POS P2_30All_3_Place={X 661.61919,Y -600.37586,Z 814.58067,A -180,B 0,C 180,S 2,T 35,E1 0,E2 0,E3 0,E4 0,E5 0,E6 0}
;ENDFOLD

;FOLD PLACE 4
DECL E6POS P2_30All_4_App1={X 331.61981,Y -600.37629,Z 1014.58119,A -180,B 0,C 180,S 2,T 35,E1 0,E2 0,E3 0,E4 0,E5 0,E6 0}
DECL E6POS P2_30All_4_App2={X 331.61926,Y -600.37595,Z 914.58081,A -180,B 0,C 180,S 2,T 35,E1 0,E2 0,E3 0,E4 0,E5 0,E6 0}
DECL E6POS P2_30All_4_Place={X 381.61985,Y -600.37563,Z 814.58067,A -180,B 0,C 180,S 2,T 35,E1 0,E2 0,E3 0,E4 0,E5 0,E6 0}
;ENDFOLD

;ENDFOLD

;FOLD Pallet 2 - Produto 24a28All
;FOLD PLACE 1
DECL E6POS P2_24a28All_1_App1={X 598.506,Y -75.16847,Z 1014.54353,A -90,B 0,C 180,S 2,T 35,E1 0,E2 0,E3 0,E4 0,E5 0,E6 0}
DECL E6POS P2_24a28All_1_App2={X 598.50597,Y -75.1683,Z 914.54395,A -90,B 0,C 180,S 2,T 35,E1 0,E2 0,E3 0,E4 0,E5 0,E6 0}
DECL E6POS P2_24a28All_1_Place={X 598.50622,Y 24.83142,Z 814.54457,A -90,B 0,C 180,S 2,T 35,E1 0,E2 0,E3 0,E4 0,E5 0,E6 0}
;ENDFOLD

;FOLD PLACE 2
DECL E6POS P2_24a28All_2_App1={X 598.50633,Y -380.168,Z 1014.54476,A -90,B 0,C 180,S 2,T 35,E1 0,E2 0,E3 0,E4 0,E5 0,E6 0}
DECL E6POS P2_24a28All_2_App2={X 598.50634,Y -380.16812,Z 914.54447,A -90,B 0,C 180,S 2,T 35,E1 0,E2 0,E3 0,E4 0,E5 0,E6 0}
DECL E6POS P2_24a28All_2_Place={X 598.51708,Y -280.17395,Z 814.55076,A -90,B 0,C 180,S 2,T 35,E1 0,E2 0,E3 0,E4 0,E5 0,E6 0}
;ENDFOLD

;FOLD PLACE 3
DECL E6POS P2_24a28All_3_App1={X 598.50603,Y -685.16854,Z 1014.5435,A -90,B 0,C 180,S 2,T 35,E1 0,E2 0,E3 0,E4 0,E5 0,E6 0}
DECL E6POS P2_24a28All_3_App2={X 598.50693,Y -685.16833,Z 914.54355,A -90,B 0,C 180,S 2,T 35,E1 0,E2 0,E3 0,E4 0,E5 0,E6 0}
DECL E6POS P2_24a28All_3_Place={X 598.50625,Y -585.16855,Z 814.54416,A -90,B 0,C 180,S 2,T 35,E1 0,E2 0,E3 0,E4 0,E5 0,E6 0}
;ENDFOLD

;ENDFOLD

;FOLD Pallet 2 - Produto 16CoffeCrisp
;FOLD PLACE 1
DECL E6POS P2_16CoffeCrisp_1_App1={X 1200.44039,Y -690.13163,Z 1019.00134,A -180,B 0,C 180,S 2,T 35,E1 0,E2 0,E3 0,E4 0,E5 0,E6 0}
DECL E6POS P2_16CoffeCrisp_1_App2={X 1200.43966,Y -690.13163,Z 892.60201,A -180,B 0,C -180,S 2,T 35,E1 0,E2 0,E3 0,E4 0,E5 0,E6 0}
DECL E6POS P2_16CoffeCrisp_1_Place={X 1262.09632,Y -600.00695,Z 814.59915,A 180,B 0,C -180,S 2,T 35,E1 0,E2 0,E3 0,E4 0,E5 0,E6 0}
;ENDFOLD

;FOLD PLACE 2
DECL E6POS P2_16CoffeCrisp_2_App1={X 799.43993,Y -690.13163,Z 1019.0018,A -180,B 0,C 180,S 2,T 35,E1 0,E2 0,E3 0,E4 0,E5 0,E6 0}
DECL E6POS P2_16CoffeCrisp_2_App2={X 799.43989,Y -690.13163,Z 892.60174,A -180,B 0,C -180,S 2,T 35,E1 0,E2 0,E3 0,E4 0,E5 0,E6 0}
DECL E6POS P2_16CoffeCrisp_2_Place={X 861.09619,Y -600.00679,Z 814.59921,A 180,B 0,C -180,S 2,T 35,E1 0,E2 0,E3 0,E4 0,E5 0,E6 0}
;ENDFOLD

;FOLD PLACE 3
DECL E6POS P2_16CoffeCrisp_3_App1={X 398.43905,Y -690.13163,Z 1019.00133,A -180,B 0,C -180,S 2,T 35,E1 0,E2 0,E3 0,E4 0,E5 0,E6 0}
DECL E6POS P2_16CoffeCrisp_3_App2={X 398.4393,Y -690.13163,Z 892.60169,A 180,B 0,C -180,S 2,T 35,E1 0,E2 0,E3 0,E4 0,E5 0,E6 0}
DECL E6POS P2_16CoffeCrisp_3_Place={X 460.09604,Y -600.00686,Z 814.59882,A -180,B 0,C -180,S 2,T 35,E1 0,E2 0,E3 0,E4 0,E5 0,E6 0}
;ENDFOLD

;FOLD PLACE 4
DECL E6POS P2_16CoffeCrisp_4_App1={X 603.07783,Y -590.51697,Z 1019.00114,A -90,B 0,C 180,S 2,T 35,E1 0,E2 0,E3 0,E4 0,E5 0,E6 0}
DECL E6POS P2_16CoffeCrisp_4_App2={X 603.0778,Y -590.51676,Z 969.00176,A -90,B 0,C 180,S 2,T 35,E1 0,E2 0,E3 0,E4 0,E5 0,E6 0}
DECL E6POS P2_16CoffeCrisp_4_Place={X 603.07772,Y -540.51695,Z 814.5989,A -90,B 0,C 180,S 2,T 35,E1 0,E2 0,E3 0,E4 0,E5 0,E6 0}
;ENDFOLD

;FOLD PLACE 5
DECL E6POS P2_16CoffeCrisp_5_App1={X 603.08186,Y 9.46734,Z 934.578,A -90,B 0,C 180,S 2,T 35,E1 0,E2 0,E3 0,E4 0,E5 0,E6 0}
DECL E6POS P2_16CoffeCrisp_5_App2={X 603.08184,Y 9.4675,Z 914.576,A -90,B 0,C 180,S 2,T 35,E1 0,E2 0,E3 0,E4 0,E5 0,E6 0}
DECL E6POS P2_16CoffeCrisp_5_Place={X 603.08152,Y 59.46749,Z 814.583,A -90,B 0,C 180,S 2,T 35,E1 0,E2 0,E3 0,E4 0,E5 0,E6 0}
;ENDFOLD

;FOLD PLACE 6
DECL E6POS P2_16CoffeCrisp_6_App1={X 1212.09936,Y -1051.03809,Z 1014.58,A -180,B 0,C 180,S 2,T 35,E1 0,E2 0,E3 0,E4 0,E5 0,E6 0}
DECL E6POS P2_16CoffeCrisp_6_App2={X 1212.09934,Y -1051.03809,Z 914.598,A -180,B 0,C 180,S 2,T 35,E1 0,E2 0,E3 0,E4 0,E5 0,E6 0}
DECL E6POS P2_16CoffeCrisp_6_Place={X 1262.09971,Y -1001.04492,Z 814.597,A 180,B 0,C 180,S 2,T 35,E1 0,E2 0,E3 0,E4 0,E5 0,E6 0}
;ENDFOLD

;FOLD PLACE 7
DECL E6POS P2_16CoffeCrisp_7_App1={X 811.09468,Y -1051.03809,Z 1014.58,A -180,B 0,C -180,S 2,T 35,E1 0,E2 0,E3 0,E4 0,E5 0,E6 0}
DECL E6POS P2_16CoffeCrisp_7_App2={X 811.09431,Y -1051.03809,Z 914.597,A -180,B 0,C 180,S 2,T 35,E1 0,E2 0,E3 0,E4 0,E5 0,E6 0}
DECL E6POS P2_16CoffeCrisp_7_Place={X 861.09415,Y -1001.03503,Z 814.605,A 180,B 0,C -180,S 2,T 35,E1 0,E2 0,E3 0,E4 0,E5 0,E6 0}
;ENDFOLD

;FOLD PLACE 8
DECL E6POS P2_16CoffeCrisp_8_App1={X 410.09422,Y -1051.03809,Z 1014.6,A -180,B 0,C -180,S 2,T 35,E1 0,E2 0,E3 0,E4 0,E5 0,E6 0}
DECL E6POS P2_16CoffeCrisp_8_App2={X 410.09432,Y -1051.03809,Z 914.6,A 180,B 0,C -180,S 2,T 35,E1 0,E2 0,E3 0,E4 0,E5 0,E6 0}
DECL E6POS P2_16CoffeCrisp_8_Place={X 460.09451,Y -1001.03794,Z 814.608,A -180,B 0,C 180,S 2,T 35,E1 0,E2 0,E3 0,E4 0,E5 0,E6 0}
;ENDFOLD

;ENDFOLD

;FOLD Pallet 2 - Produto 37BarPacking
;FOLD PLACE 1
DECL E6POS P2_37BarPacking_1_App1={X 557.61101,Y -111.61638,Z 1263.48407,A -90,B 0,C 180,S 2,T 35,E1 0,E2 0,E3 0,E4 0,E5 0,E6 0}
DECL E6POS P2_37BarPacking_1_App2={X 557.61102,Y -111.61645,Z 1063.48526,A -90,B 0,C 180,S 2,T 35,E1 0,E2 0,E3 0,E4 0,E5 0,E6 0}
DECL E6POS P2_37BarPacking_1_Place={X 557.6118,Y -11.61642,Z 863.48454,A -90,B 0,C 180,S 2,T 35,E1 0,E2 0,E3 0,E4 0,E5 0,E6 0}
;ENDFOLD

;FOLD PLACE 2
DECL E6POS P2_37BarPacking_2_App1={X 557.61163,Y -607.61597,Z 1263.48456,A -90,B 0,C 180,S 2,T 35,E1 0,E2 0,E3 0,E4 0,E5 0,E6 0}
DECL E6POS P2_37BarPacking_2_App2={X 557.61169,Y -607.61647,Z 1063.48493,A -90,B 0,C 180,S 2,T 35,E1 0,E2 0,E3 0,E4 0,E5 0,E6 0}
DECL E6POS P2_37BarPacking_2_Place={X 557.61131,Y -507.61657,Z 863.4846,A -90,B 0,C 180,S 2,T 35,E1 0,E2 0,E3 0,E4 0,E5 0,E6 0}
;ENDFOLD

;ENDFOLD

;FOLD Pallet 2 - Produto 36BarPacking
;FOLD PLACE 1
DECL E6POS P2_36BarPacking_1_App1={X 562.60865,Y -356.53512,Z 1263.45992,A -90,B 0,C 180,S 2,T 35,E1 0,E2 0,E3 0,E4 0,E5 0,E6 0}
DECL E6POS P2_36BarPacking_1_App2={X 562.6086,Y -356.53471,Z 1063.46026,A -90,B 0,C 180,S 2,T 35,E1 0,E2 0,E3 0,E4 0,E5 0,E6 0}
DECL E6POS P2_36BarPacking_1_Place={X 562.60916,Y -256.53557,Z 863.45968,A -90,B 0,C 180,S 2,T 35,E1 0,E2 0,E3 0,E4 0,E5 0,E6 0}
;ENDFOLD

;ENDFOLD

;FOLD Pallet 2 - Produto 22KitKat
;FOLD PLACE 1
DECL E6POS P2_22KitKat_1_App1={X 1077.23936,Y -555.93148,Z 1141.50167,A -180,B 0,C -180,S 2,T 35,E1 0,E2 0,E3 0,E4 0,E5 0,E6 0}
DECL E6POS P2_22KitKat_1_App2={X 1077.23956,Y -555.93156,Z 941.50237,A -180,B 0,C -180,S 2,T 35,E1 0,E2 0,E3 0,E4 0,E5 0,E6 0}
DECL E6POS P2_22KitKat_1_Place={X 1177.24033,Y -555.93147,Z 841.5026,A 180,B 0,C -180,S 2,T 35,E1 0,E2 0,E3 0,E4 0,E5 0,E6 0}
;ENDFOLD

;FOLD PLACE 2
DECL E6POS P2_22KitKat_2_App1={X 683.23914,Y -555.93167,Z 1141.50271,A -180,B 0,C -180,S 2,T 35,E1 0,E2 0,E3 0,E4 0,E5 0,E6 0}
DECL E6POS P2_22KitKat_2_App2={X 683.23959,Y -555.93151,Z 941.50181,A 180,B 0,C -180,S 2,T 35,E1 0,E2 0,E3 0,E4 0,E5 0,E6 0}
DECL E6POS P2_22KitKat_2_Place={X 783.24013,Y -555.93149,Z 841.50209,A -180,B 0,C 180,S 2,T 35,E1 0,E2 0,E3 0,E4 0,E5 0,E6 0}
;ENDFOLD

;FOLD PLACE 3
DECL E6POS P2_22KitKat_3_App1={X 339.23921,Y -555.93135,Z 1141.50226,A -180,B 0,C -180,S 2,T 35,E1 0,E2 0,E3 0,E4 0,E5 0,E6 0}
DECL E6POS P2_22KitKat_3_App2={X 339.23968,Y -555.9315,Z 941.50171,A -180,B 0,C -180,S 2,T 35,E1 0,E2 0,E3 0,E4 0,E5 0,E6 0}
DECL E6POS P2_22KitKat_3_Place={X 389.23966,Y -555.93116,Z 841.50213,A -180,B 0,C -180,S 2,T 35,E1 0,E2 0,E3 0,E4 0,E5 0,E6 0}
;ENDFOLD

;FOLD PLACE 4
DECL E6POS P2_22KitKat_4_App1={X 563.18108,Y -658.59718,Z 1167.90221,A -90,B 0,C 180,S 2,T 35,E1 0,E2 0,E3 0,E4 0,E5 0,E6 0}
DECL E6POS P2_22KitKat_4_App2={X 563.1811,Y -658.59734,Z 1041.51047,A -90,B 0,C 180,S 2,T 35,E1 0,E2 0,E3 0,E4 0,E5 0,E6 0}
DECL E6POS P2_22KitKat_4_Place={X 563.1807,Y -608.59735,Z 841.51045,A -90,B 0,C 180,S 2,T 35,E1 0,E2 0,E3 0,E4 0,E5 0,E6 0}
;ENDFOLD

;FOLD PLACE 5
DECL E6POS P2_22KitKat_5_App1={X 563.18297,Y -180.42867,Z 1067.9,A -90,B 0,C 180,S 2,T 35,E1 0,E2 0,E3 0,E4 0,E5 0,E6 0}
DECL E6POS P2_22KitKat_5_App2={X 563.18303,Y -180.42922,Z 967.902,A -90,B 0,C 180,S 2,T 35,E1 0,E2 0,E3 0,E4 0,E5 0,E6 0}
DECL E6POS P2_22KitKat_5_Place={X 563.18269,Y -26.61185,Z 841.502,A -90,B 0,C 180,S 2,T 35,E1 0,E2 0,E3 0,E4 0,E5 0,E6 0}
;ENDFOLD

;FOLD PLACE 6
DECL E6POS P2_22KitKat_6_App1={X 1127.24422,Y -981.19257,Z 1117.9,A -180,B 0,C -180,S 2,T 35,E1 0,E2 0,E3 0,E4 0,E5 0,E6 0}
DECL E6POS P2_22KitKat_6_App2={X 1127.24389,Y -981.19257,Z 967.902,A 180,B 0,C 180,S 2,T 35,E1 0,E2 0,E3 0,E4 0,E5 0,E6 0}
DECL E6POS P2_22KitKat_6_Place={X 1177.24386,Y -931.19259,Z 841.502,A 180,B 0,C 180,S 2,T 35,E1 0,E2 0,E3 0,E4 0,E5 0,E6 0}
;ENDFOLD

;FOLD PLACE 7
DECL E6POS P2_22KitKat_7_App1={X 732.67962,Y -981.19257,Z 1117.9,A -180,B 0,C 180,S 2,T 35,E1 0,E2 0,E3 0,E4 0,E5 0,E6 0}
DECL E6POS P2_22KitKat_7_App2={X 732.6796,Y -981.19257,Z 967.902,A 180,B 0,C 180,S 2,T 35,E1 0,E2 0,E3 0,E4 0,E5 0,E6 0}
DECL E6POS P2_22KitKat_7_Place={X 782.67974,Y -931.19212,Z 841.5,A 180,B 0,C -180,S 2,T 35,E1 0,E2 0,E3 0,E4 0,E5 0,E6 0}
;ENDFOLD

;FOLD PLACE 8
DECL E6POS P2_22KitKat_8_App1={X 336.24329,Y -981.19257,Z 1117.9,A -180,B 0,C -180,S 2,T 35,E1 0,E2 0,E3 0,E4 0,E5 0,E6 0}
DECL E6POS P2_22KitKat_8_App2={X 336.24344,Y -981.19257,Z 967.902,A 180,B 0,C 180,S 2,T 35,E1 0,E2 0,E3 0,E4 0,E5 0,E6 0}
DECL E6POS P2_22KitKat_8_Place={X 386.24327,Y -931.19248,Z 841.502,A 180,B 0,C 180,S 2,T 35,E1 0,E2 0,E3 0,E4 0,E5 0,E6 0}
;ENDFOLD

;ENDFOLD

;FOLD Pallet 2 - Produto 35BarPacking
;FOLD PLACE 1
DECL E6POS P2_35BarPacking_1_App1={X 1128.19567,Y -552.20825,Z 1215.66303,A -180,B 0,C 180,S 2,T 35,E1 0,E2 0,E3 0,E4 0,E5 0,E6 0}
DECL E6POS P2_35BarPacking_1_App2={X 1128.19623,Y -552.20835,Z 1015.66288,A 180,B 0,C 180,S 2,T 35,E1 0,E2 0,E3 0,E4 0,E5 0,E6 0}
DECL E6POS P2_35BarPacking_1_Place={X 1178.19625,Y -552.20835,Z 865.66289,A -180,B 0,C -180,S 2,T 35,E1 0,E2 0,E3 0,E4 0,E5 0,E6 0}
;ENDFOLD

;FOLD PLACE 2
DECL E6POS P2_35BarPacking_2_App1={X 532.19535,Y -552.20804,Z 1215.66364,A -180,B 0,C -180,S 2,T 35,E1 0,E2 0,E3 0,E4 0,E5 0,E6 0}
DECL E6POS P2_35BarPacking_2_App2={X 532.19539,Y -552.20804,Z 1015.66268,A -180,B 0,C -180,S 2,T 35,E1 0,E2 0,E3 0,E4 0,E5 0,E6 0}
DECL E6POS P2_35BarPacking_2_Place={X 582.19539,Y -552.20804,Z 865.66281,A -180,B 0,C 180,S 2,T 35,E1 0,E2 0,E3 0,E4 0,E5 0,E6 0}
;ENDFOLD

;FOLD PLACE 3
DECL E6POS P2_35BarPacking_3_App1={X 569.41677,Y -557.00625,Z 1274.46311,A -90,B 0,C 180,S 2,T 35,E1 0,E2 0,E3 0,E4 0,E5 0,E6 0}
DECL E6POS P2_35BarPacking_3_App2={X 569.41678,Y -557.0063,Z 1024.46326,A -90,B 0,C 180,S 2,T 35,E1 0,E2 0,E3 0,E4 0,E5 0,E6 0}
DECL E6POS P2_35BarPacking_3_Place={X 569.41676,Y -409.86988,Z 865.6385,A -90,B 0,C 180,S 2,T 35,E1 0,E2 0,E3 0,E4 0,E5 0,E6 0}
;ENDFOLD

;ENDFOLD

;FOLD Pallet 2 - Produto 32BarPacking
;FOLD PLACE 1
DECL E6POS P2_32BarPacking_1_App1={X 1072.98704,Y -565.20086,Z 1272.32348,A -180,B 0,C 180,S 2,T 35,E1 0,E2 0,E3 0,E4 0,E5 0,E6 0}
DECL E6POS P2_32BarPacking_1_App2={X 1072.98689,Y -565.20116,Z 1122.32295,A 180,B 0,C -180,S 2,T 35,E1 0,E2 0,E3 0,E4 0,E5 0,E6 0}
DECL E6POS P2_32BarPacking_1_Place={X 1172.98673,Y -565.20078,Z 872.32277,A 180,B 0,C -180,S 2,T 35,E1 0,E2 0,E3 0,E4 0,E5 0,E6 0}
;ENDFOLD

;FOLD PLACE 2
DECL E6POS P2_32BarPacking_2_App1={X 681.98602,Y -565.20088,Z 1272.32295,A 180,B 0,C -180,S 2,T 35,E1 0,E2 0,E3 0,E4 0,E5 0,E6 0}
DECL E6POS P2_32BarPacking_2_App2={X 681.98616,Y -565.20081,Z 1122.3233,A -180,B 0,C -180,S 2,T 35,E1 0,E2 0,E3 0,E4 0,E5 0,E6 0}
DECL E6POS P2_32BarPacking_2_Place={X 781.9869,Y -565.20077,Z 872.32219,A 180,B 0,C 180,S 2,T 35,E1 0,E2 0,E3 0,E4 0,E5 0,E6 0}
;ENDFOLD

;FOLD PLACE 3
DECL E6POS P2_32BarPacking_3_App1={X 290.98722,Y -565.20115,Z 1272.32355,A 180,B 0,C -180,S 2,T 35,E1 0,E2 0,E3 0,E4 0,E5 0,E6 0}
DECL E6POS P2_32BarPacking_3_App2={X 290.9867,Y -565.20113,Z 1122.32278,A 180,B 0,C 180,S 2,T 35,E1 0,E2 0,E3 0,E4 0,E5 0,E6 0}
DECL E6POS P2_32BarPacking_3_Place={X 390.98701,Y -565.20118,Z 872.32277,A 180,B 0,C 180,S 2,T 35,E1 0,E2 0,E3 0,E4 0,E5 0,E6 0}
;ENDFOLD

;ENDFOLD

;FOLD Pallet 2 - Produto 33BarPacking
;FOLD PLACE 1
DECL E6POS P2_33BarPacking_1_App1={X 1047.81428,Y -532.63231,Z 1263.51475,A 180,B 0,C 180,S 2,T 35,E1 0,E2 0,E3 0,E4 0,E5 0,E6 0}
DECL E6POS P2_33BarPacking_1_App2={X 1047.81429,Y -532.63247,Z 1063.51485,A 180,B 0,C 180,S 2,T 35,E1 0,E2 0,E3 0,E4 0,E5 0,E6 0}
DECL E6POS P2_33BarPacking_1_Place={X 1147.81449,Y -532.63244,Z 863.51516,A 180,B 0,C 180,S 2,T 35,E1 0,E2 0,E3 0,E4 0,E5 0,E6 0}
;ENDFOLD

;FOLD PLACE 2
DECL E6POS P2_33BarPacking_2_App1={X 482.81525,Y -532.63229,Z 1263.51579,A 180,B 0,C 180,S 2,T 35,E1 0,E2 0,E3 0,E4 0,E5 0,E6 0}
DECL E6POS P2_33BarPacking_2_App2={X 482.81509,Y -532.63223,Z 1063.51535,A 180,B 0,C 180,S 2,T 35,E1 0,E2 0,E3 0,E4 0,E5 0,E6 0}
DECL E6POS P2_33BarPacking_2_Place={X 582.81489,Y -532.63218,Z 863.51495,A -180,B 0,C 180,S 2,T 35,E1 0,E2 0,E3 0,E4 0,E5 0,E6 0}
;ENDFOLD

;ENDFOLD

;FOLD Pallet 2 - Produto 34BarPacking
;FOLD PLACE 1
DECL E6POS P2_34BarPacking_1_App1={X 1055.40866,Y -747.77738,Z 1006.97196,A -180,B 0,C -180,S 2,T 35,E1 0,E2 0,E3 0,E4 0,E5 0,E6 0}
DECL E6POS P2_34BarPacking_1_App2={X 1055.40912,Y -747.77793,Z 886.97188,A -180,B 0,C -180,S 2,T 35,E1 0,E2 0,E3 0,E4 0,E5 0,E6 0}
DECL E6POS P2_34BarPacking_1_Place={X 1155.40894,Y -747.77773,Z 786.97153,A -180,B 0,C 180,S 2,T 35,E1 0,E2 0,E3 0,E4 0,E5 0,E6 0}
;ENDFOLD

;FOLD PLACE 2
DECL E6POS P2_34BarPacking_2_App1={X 516.40798,Y -747.778,Z 1006.97252,A -180,B 0,C 180,S 2,T 35,E1 0,E2 0,E3 0,E4 0,E5 0,E6 0}
DECL E6POS P2_34BarPacking_2_App2={X 516.40827,Y -747.77795,Z 886.97211,A -180,B 0,C -180,S 2,T 35,E1 0,E2 0,E3 0,E4 0,E5 0,E6 0}
DECL E6POS P2_34BarPacking_2_Place={X 586.40852,Y -747.7776,Z 786.97168,A 180,B 0,C 180,S 2,T 35,E1 0,E2 0,E3 0,E4 0,E5 0,E6 0}
;ENDFOLD

;ENDFOLD

;FOLD Pallet 2 - Produto 9Aero
;FOLD PLACE 1
DECL E6POS P2_9Aero_1_App1={X 1022.73306,Y -498.1564,Z 1136.99458,A -180,B 0,C -180,S 2,T 35,E1 0,E2 0,E3 0,E4 0,E5 0,E6 0}
DECL E6POS P2_9Aero_1_App2={X 1022.73295,Y -498.15642,Z 936.99495,A 180,B 0,C 180,S 2,T 35,E1 0,E2 0,E3 0,E4 0,E5 0,E6 0}
DECL E6POS P2_9Aero_1_Place={X 1158.2198,Y -498.15642,Z 814.35008,A -180,B 0,C -180,S 2,T 35,E1 0,E2 0,E3 0,E4 0,E5 0,E6 0}
;ENDFOLD

;FOLD PLACE 2
DECL E6POS P2_9Aero_2_App1={X 683.22015,Y -498.15707,Z 1136.99425,A -180,B 0,C 180,S 2,T 35,E1 0,E2 0,E3 0,E4 0,E5 0,E6 0}
DECL E6POS P2_9Aero_2_App2={X 683.22012,Y -498.15659,Z 936.99466,A -180,B 0,C -180,S 2,T 35,E1 0,E2 0,E3 0,E4 0,E5 0,E6 0}
DECL E6POS P2_9Aero_2_Place={X 783.22012,Y -498.15659,Z 814.35013,A 180,B 0,C -180,S 2,T 35,E1 0,E2 0,E3 0,E4 0,E5 0,E6 0}
;ENDFOLD

;FOLD PLACE 3
DECL E6POS P2_9Aero_3_App1={X 308.22015,Y -498.15707,Z 1136.99425,A -180,B 0,C 180,S 2,T 35,E1 0,E2 0,E3 0,E4 0,E5 0,E6 0}
DECL E6POS P2_9Aero_3_App2={X 308.22012,Y -498.15659,Z 936.99466,A -180,B 0,C -180,S 2,T 35,E1 0,E2 0,E3 0,E4 0,E5 0,E6 0}
DECL E6POS P2_9Aero_3_Place={X 408.22012,Y -498.15659,Z 814.35013,A 180,B 0,C -180,S 2,T 35,E1 0,E2 0,E3 0,E4 0,E5 0,E6 0}
;ENDFOLD

;ENDFOLD

;FOLD Pallet 2 - Produto 23Smarties
;FOLD PLACE 1
DECL E6POS P2_23Smarties_1_App1={X 1022.73304,Y -509.69014,Z 1186.99425,A -180,B 0,C 180,S 2,T 35,E1 0,E2 0,E3 0,E4 0,E5 0,E6 0}
DECL E6POS P2_23Smarties_1_App2={X 1022.73295,Y -509.69014,Z 936.99495,A 180,B 0,C 180,S 2,T 35,E1 0,E2 0,E3 0,E4 0,E5 0,E6 0}
DECL E6POS P2_23Smarties_1_Place={X 1170.82194,Y -509.69014,Z 814.35435,A -180,B 0,C -180,S 2,T 35,E1 0,E2 0,E3 0,E4 0,E5 0,E6 0}
;ENDFOLD

;FOLD PLACE 2
DECL E6POS P2_23Smarties_2_App1={X 683.22016,Y -509.69014,Z 1176.99399,A 180,B 0,C 180,S 2,T 35,E1 0,E2 0,E3 0,E4 0,E5 0,E6 0}
DECL E6POS P2_23Smarties_2_App2={X 683.22012,Y -509.69014,Z 936.99466,A -180,B 0,C -180,S 2,T 35,E1 0,E2 0,E3 0,E4 0,E5 0,E6 0}
DECL E6POS P2_23Smarties_2_Place={X 790.82183,Y -509.69033,Z 814.35439,A 180,B 0,C -180,S 2,T 35,E1 0,E2 0,E3 0,E4 0,E5 0,E6 0}
;ENDFOLD

;FOLD PLACE 3
DECL E6POS P2_23Smarties_3_App1={X 308.2204,Y -509.69014,Z 1176.9944,A -180,B 0,C 180,S 2,T 35,E1 0,E2 0,E3 0,E4 0,E5 0,E6 0}
DECL E6POS P2_23Smarties_3_App2={X 308.22012,Y -509.69014,Z 936.99466,A -180,B 0,C -180,S 2,T 35,E1 0,E2 0,E3 0,E4 0,E5 0,E6 0}
DECL E6POS P2_23Smarties_3_Place={X 410.82208,Y -509.69009,Z 814.35445,A 180,B 0,C -180,S 2,T 35,E1 0,E2 0,E3 0,E4 0,E5 0,E6 0}
;ENDFOLD

;ENDFOLD

;FOLD Pallet 2 - Produto 10CoffeCrisp
;FOLD PLACE 1
DECL E6POS P2_10CoffeCrisp_1_App1={X 678.68703,Y -69.47041,Z 1064.60184,A -90,B 0,C 180,S 2,T 35,E1 0,E2 0,E3 0,E4 0,E5 0,E6 0}
DECL E6POS P2_10CoffeCrisp_1_App2={X 678.68701,Y -69.47031,Z 964.6022,A -90,B 0,C 180,S 2,T 35,E1 0,E2 0,E3 0,E4 0,E5 0,E6 0}
DECL E6POS P2_10CoffeCrisp_1_Place={X 678.68718,Y 30.52967,Z 814.6017,A -90,B 0,C 180,S 2,T 35,E1 0,E2 0,E3 0,E4 0,E5 0,E6 0}
;ENDFOLD

;FOLD PLACE 2
DECL E6POS P2_10CoffeCrisp_2_App1={X 678.68644,Y -549.47075,Z 1064.60202,A -90,B 0,C 180,S 2,T 35,E1 0,E2 0,E3 0,E4 0,E5 0,E6 0}
DECL E6POS P2_10CoffeCrisp_2_App2={X 678.68631,Y -549.47009,Z 964.60168,A -90,B 0,C 180,S 2,T 35,E1 0,E2 0,E3 0,E4 0,E5 0,E6 0}
DECL E6POS P2_10CoffeCrisp_2_Place={X 678.68613,Y -449.47014,Z 814.60185,A -90,B 0,C 180,S 2,T 35,E1 0,E2 0,E3 0,E4 0,E5 0,E6 0}
;ENDFOLD

;FOLD PLACE 3
DECL E6POS P2_10CoffeCrisp_3_App1={X 916.04623,Y -375.0762,Z 1065.37648,A -180,B 0,C 180,S 2,T 35,E1 0,E2 0,E3 0,E4 0,E5 0,E6 0}
DECL E6POS P2_10CoffeCrisp_3_App2={X 916.04603,Y -375.07628,Z 915.37674,A -180,B 0,C 180,S 2,T 35,E1 0,E2 0,E3 0,E4 0,E5 0,E6 0}
DECL E6POS P2_10CoffeCrisp_3_Place={X 966.04643,Y -375.07632,Z 815.37641,A -180,B 0,C 180,S 2,T 35,E1 0,E2 0,E3 0,E4 0,E5 0,E6 0}
;ENDFOLD

;FOLD PLACE 4
DECL E6POS P2_10CoffeCrisp_4_App1={X 451.05208,Y -375.0666,Z 1065.37634,A 180,B 0,C 180,S 2,T 35,E1 0,E2 0,E3 0,E4 0,E5 0,E6 0}
DECL E6POS P2_10CoffeCrisp_4_App2={X 451.05203,Y -375.06648,Z 915.36233,A -180,B 0,C -180,S 2,T 35,E1 0,E2 0,E3 0,E4 0,E5 0,E6 0}
DECL E6POS P2_10CoffeCrisp_4_Place={X 501.05137,Y -375.06643,Z 815.36226,A -180,B 0,C 180,S 2,T 35,E1 0,E2 0,E3 0,E4 0,E5 0,E6 0}
;ENDFOLD

;FOLD PLACE 5
DECL E6POS P2_10CoffeCrisp_5_App1={X 498.37936,Y -81.1426,Z 1044.6,A -90,B 0,C 180,S 2,T 35,E1 0,E2 0,E3 0,E4 0,E5 0,E6 0}
DECL E6POS P2_10CoffeCrisp_5_App2={X 498.37964,Y -81.14297,Z 914.6,A -90,B 0,C 180,S 2,T 35,E1 0,E2 0,E3 0,E4 0,E5 0,E6 0}
DECL E6POS P2_10CoffeCrisp_5_Place={X 498.38094,Y -31.14301,Z 814.601,A -90,B 0,C 180,S 2,T 35,E1 0,E2 0,E3 0,E4 0,E5 0,E6 0}
;ENDFOLD

;FOLD PLACE 6
DECL E6POS P2_10CoffeCrisp_6_App1={X 498.38024,Y -561.1425,Z 1064.6,A -90,B 0,C 180,S 2,T 35,E1 0,E2 0,E3 0,E4 0,E5 0,E6 0}
DECL E6POS P2_10CoffeCrisp_6_App2={X 498.38024,Y -561.14273,Z 964.6,A -90,B 0,C 180,S 2,T 35,E1 0,E2 0,E3 0,E4 0,E5 0,E6 0}
DECL E6POS P2_10CoffeCrisp_6_Place={X 498.38025,Y -511.14273,Z 814.601,A -90,B 0,C 180,S 2,T 35,E1 0,E2 0,E3 0,E4 0,E5 0,E6 0}
;ENDFOLD

;FOLD PLACE 7
DECL E6POS P2_10CoffeCrisp_7_App1={X 866.03456,Y -375.06821,Z 1064.6,A -180,B 0,C 180,S 2,T 35,E1 0,E2 0,E3 0,E4 0,E5 0,E6 0}
DECL E6POS P2_10CoffeCrisp_7_App2={X 866.03456,Y -375.06838,Z 964.6,A 180,B 0,C 180,S 2,T 35,E1 0,E2 0,E3 0,E4 0,E5 0,E6 0}
DECL E6POS P2_10CoffeCrisp_7_Place={X 816.03456,Y -375.06838,Z 815.375,A 180,B 0,C 180,S 2,T 35,E1 0,E2 0,E3 0,E4 0,E5 0,E6 0}
;ENDFOLD

;FOLD PLACE 8
DECL E6POS P2_10CoffeCrisp_8_App1={X 1321.03726,Y -375.06841,Z 1064.6,A -180,B 0,C 180,S 2,T 35,E1 0,E2 0,E3 0,E4 0,E5 0,E6 0}
DECL E6POS P2_10CoffeCrisp_8_App2={X 1321.03726,Y -375.06838,Z 964.6,A 180,B 0,C -180,S 2,T 35,E1 0,E2 0,E3 0,E4 0,E5 0,E6 0}
DECL E6POS P2_10CoffeCrisp_8_Place={X 1281.03726,Y -375.06798,Z 815.384,A 180,B 0,C 180,S 2,T 35,E1 0,E2 0,E3 0,E4 0,E5 0,E6 0}
;ENDFOLD

;ENDFOLD

;FOLD Pallet 2 - Produto 19KitKat
;FOLD PLACE 1
DECL E6POS P2_19KitKat_1_App1={X 628.12968,Y 5.12282,Z 964.60075,A -90,B 0,C 180,S 2,T 35,E1 0,E2 0,E3 0,E4 0,E5 0,E6 0}
DECL E6POS P2_19KitKat_1_App2={X 628.12965,Y 5.12308,Z 914.60035,A -90,B 0,C 180,S 2,T 35,E1 0,E2 0,E3 0,E4 0,E5 0,E6 0}
DECL E6POS P2_19KitKat_1_Place={X 628.12978,Y 55.12338,Z 814.59958,A -90,B 0,C 180,S 2,T 35,E1 0,E2 0,E3 0,E4 0,E5 0,E6 0}
;ENDFOLD

;FOLD PLACE 2
DECL E6POS P2_19KitKat_2_App1={X 628.12918,Y -335.8776,Z 964.59954,A -90,B 0,C 180,S 2,T 35,E1 0,E2 0,E3 0,E4 0,E5 0,E6 0}
DECL E6POS P2_19KitKat_2_App2={X 628.12921,Y -335.87781,Z 914.60046,A -90,B 0,C 180,S 2,T 35,E1 0,E2 0,E3 0,E4 0,E5 0,E6 0}
DECL E6POS P2_19KitKat_2_Place={X 628.13027,Y -285.8774,Z 814.59998,A -90,B 0,C 180,S 2,T 35,E1 0,E2 0,E3 0,E4 0,E5 0,E6 0}
;ENDFOLD

;FOLD PLACE 3
DECL E6POS P2_19KitKat_3_App1={X 628.12927,Y -676.8773,Z 964.59999,A -90,B 0,C 180,S 2,T 35,E1 0,E2 0,E3 0,E4 0,E5 0,E6 0}
DECL E6POS P2_19KitKat_3_App2={X 628.12934,Y -676.87767,Z 914.59959,A -90,B 0,C 180,S 2,T 35,E1 0,E2 0,E3 0,E4 0,E5 0,E6 0}
DECL E6POS P2_19KitKat_3_Place={X 628.12942,Y -626.87753,Z 814.59962,A -90,B 0,C 180,S 2,T 35,E1 0,E2 0,E3 0,E4 0,E5 0,E6 0}
;ENDFOLD

;FOLD PLACE 4
DECL E6POS P2_19KitKat_4_App1={X 935.19434,Y -386.49007,Z 964.60022,A 180,B 0,C -180,S 2,T 35,E1 0,E2 0,E3 0,E4 0,E5 0,E6 0}
DECL E6POS P2_19KitKat_4_App2={X 935.19395,Y -386.48983,Z 914.60038,A -180,B 0,C -180,S 2,T 35,E1 0,E2 0,E3 0,E4 0,E5 0,E6 0}
DECL E6POS P2_19KitKat_4_Place={X 985.19395,Y -386.48983,Z 814.60016,A 180,B 0,C -180,S 2,T 35,E1 0,E2 0,E3 0,E4 0,E5 0,E6 0}
;ENDFOLD

;FOLD PLACE 5
DECL E6POS P2_19KitKat_5_App1={X 637.19376,Y -386.49028,Z 964.59989,A 180,B 0,C 180,S 2,T 35,E1 0,E2 0,E3 0,E4 0,E5 0,E6 0}
DECL E6POS P2_19KitKat_5_App2={X 637.19358,Y -386.49003,Z 914.59977,A -180,B 0,C -180,S 2,T 35,E1 0,E2 0,E3 0,E4 0,E5 0,E6 0}
DECL E6POS P2_19KitKat_5_Place={X 687.19358,Y -386.49003,Z 814.60016,A -180,B 0,C 180,S 2,T 35,E1 0,E2 0,E3 0,E4 0,E5 0,E6 0}
;ENDFOLD

;FOLD PLACE 6
DECL E6POS P2_19KitKat_6_App1={X 339.18758,Y -386.49017,Z 964.59908,A -180,B 0,C 180,S 2,T 35,E1 0,E2 0,E3 0,E4 0,E5 0,E6 0}
DECL E6POS P2_19KitKat_6_App2={X 339.18782,Y -386.49003,Z 914.60003,A -180,B 0,C 180,S 2,T 35,E1 0,E2 0,E3 0,E4 0,E5 0,E6 0}
DECL E6POS P2_19KitKat_6_Place={X 389.18782,Y -386.49974,Z 814.59632,A -180,B 0,C 180,S 2,T 35,E1 0,E2 0,E3 0,E4 0,E5 0,E6 0}
;ENDFOLD

;FOLD PLACE 7
DECL E6POS P2_19KitKat_7_App1={X 627.60299,Y 6.08307,Z 970.012,A -90,B 0,C 180,S 2,T 35,E1 0,E2 0,E3 0,E4 0,E5 0,E6 0}
DECL E6POS P2_19KitKat_7_App2={X 627.60297,Y 6.08322,Z 900.012,A -90,B 0,C 180,S 2,T 35,E1 0,E2 0,E3 0,E4 0,E5 0,E6 0}
DECL E6POS P2_19KitKat_7_Place={X 627.60302,Y 56.08324,Z 814.611,A -90,B 0,C 180,S 2,T 35,E1 0,E2 0,E3 0,E4 0,E5 0,E6 0}
;ENDFOLD

;FOLD PLACE 8
DECL E6POS P2_19KitKat_8_App1={X 627.60345,Y -334.86514,Z 970.012,A -90,B 0,C 180,S 2,T 35,E1 0,E2 0,E3 0,E4 0,E5 0,E6 0}
DECL E6POS P2_19KitKat_8_App2={X 627.60348,Y -334.86532,Z 900.012,A -90,B 0,C 180,S 2,T 35,E1 0,E2 0,E3 0,E4 0,E5 0,E6 0}
DECL E6POS P2_19KitKat_8_Place={X 627.60287,Y -284.86542,Z 814.587,A -90,B 0,C 180,S 2,T 35,E1 0,E2 0,E3 0,E4 0,E5 0,E6 0}
;ENDFOLD

;FOLD PLACE 9
DECL E6POS P2_19KitKat_9_App1={X 627.60706,Y -675.91083,Z 970.012,A -90,B 0,C 180,S 2,T 35,E1 0,E2 0,E3 0,E4 0,E5 0,E6 0}
DECL E6POS P2_19KitKat_9_App2={X 627.60704,Y -675.91069,Z 900.012,A -90,B 0,C 180,S 2,T 35,E1 0,E2 0,E3 0,E4 0,E5 0,E6 0}
DECL E6POS P2_19KitKat_9_Place={X 627.60668,Y -625.91075,Z 814.595,A -90,B 0,C 180,S 2,T 35,E1 0,E2 0,E3 0,E4 0,E5 0,E6 0}
;ENDFOLD

;FOLD PLACE 10
DECL E6POS P2_19KitKat_10_App1={X 683.56529,Y -386.47409,Z 970.013,A -180,B 0,C -180,S 2,T 35,E1 0,E2 0,E3 0,E4 0,E5 0,E6 0}
DECL E6POS P2_19KitKat_10_App2={X 683.56511,Y -386.47413,Z 899.8,A -180,B 0,C -180,S 2,T 35,E1 0,E2 0,E3 0,E4 0,E5 0,E6 0}
DECL E6POS P2_19KitKat_10_Place={X 633.56511,Y -386.47413,Z 814.617,A 180,B 0,C 180,S 2,T 35,E1 0,E2 0,E3 0,E4 0,E5 0,E6 0}
;ENDFOLD

;FOLD PLACE 11
DECL E6POS P2_19KitKat_11_App1={X 981.57268,Y -386.48858,Z 970.012,A -180,B 0,C -180,S 2,T 35,E1 0,E2 0,E3 0,E4 0,E5 0,E6 0}
DECL E6POS P2_19KitKat_11_App2={X 981.57236,Y -386.48838,Z 899.8,A -180,B 0,C -180,S 2,T 35,E1 0,E2 0,E3 0,E4 0,E5 0,E6 0}
DECL E6POS P2_19KitKat_11_Place={X 931.57236,Y -386.48838,Z 814.603,A -180,B 0,C -180,S 2,T 35,E1 0,E2 0,E3 0,E4 0,E5 0,E6 0}
;ENDFOLD

;FOLD PLACE 12
DECL E6POS P2_19KitKat_12_App1={X 1269.56898,Y -386.48832,Z 970.012,A 180,B 0,C -180,S 2,T 35,E1 0,E2 0,E3 0,E4 0,E5 0,E6 0}
DECL E6POS P2_19KitKat_12_App2={X 1269.56898,Y -386.48838,Z 899.8,A -180,B 0,C -180,S 2,T 35,E1 0,E2 0,E3 0,E4 0,E5 0,E6 0}
DECL E6POS P2_19KitKat_12_Place={X 1229.56898,Y -386.48174,Z 814.61,A -180,B 0,C -180,S 2,T 35,E1 0,E2 0,E3 0,E4 0,E5 0,E6 0}
;ENDFOLD

;ENDFOLD

;FOLD Pallet 2 - Produto 7Aero
;FOLD PLACE 1
DECL E6POS P2_7Aero_1_App1={X 643.07165,Y -18.83747,Z 1065.29413,A -90,B 0,C 180,S 2,T 35,E1 0,E2 0,E3 0,E4 0,E5 0,E6 0}
DECL E6POS P2_7Aero_1_App2={X 643.07161,Y -18.83708,Z 965.29391,A -90,B 0,C 180,S 2,T 35,E1 0,E2 0,E3 0,E4 0,E5 0,E6 0}
DECL E6POS P2_7Aero_1_Place={X 643.0714,Y 81.16245,Z 815.29354,A -90,B 0,C 180,S 2,T 35,E1 0,E2 0,E3 0,E4 0,E5 0,E6 0}
;ENDFOLD

;FOLD PLACE 2
DECL E6POS P2_7Aero_2_App1={X 643.07122,Y -336.8372,Z 1065.29326,A -90,B 0,C 180,S 2,T 35,E1 0,E2 0,E3 0,E4 0,E5 0,E6 0}
DECL E6POS P2_7Aero_2_App2={X 643.07122,Y -336.8372,Z 965.29352,A -90,B 0,C 180,S 2,T 35,E1 0,E2 0,E3 0,E4 0,E5 0,E6 0}
DECL E6POS P2_7Aero_2_Place={X 643.0708,Y -236.83734,Z 815.29381,A -90,B 0,C 180,S 2,T 35,E1 0,E2 0,E3 0,E4 0,E5 0,E6 0}
;ENDFOLD

;FOLD PLACE 3
DECL E6POS P2_7Aero_3_App1={X 649.39677,Y -517.46993,Z 1065.28605,A 180,B 0,C -180,S 2,T 35,E1 0,E2 0,E3 0,E4 0,E5 0,E6 0}
DECL E6POS P2_7Aero_3_App2={X 649.39706,Y -517.46969,Z 965.28614,A 180,B 0,C -180,S 2,T 35,E1 0,E2 0,E3 0,E4 0,E5 0,E6 0}
DECL E6POS P2_7Aero_3_Place={X 689.39706,Y -517.47003,Z 815.2861,A 180,B 0,C -180,S 2,T 35,E1 0,E2 0,E3 0,E4 0,E5 0,E6 0}
;ENDFOLD

;FOLD PLACE 4
DECL E6POS P2_7Aero_4_App1={X 331.39694,Y -517.46996,Z 1065.28563,A 180,B 0,C 180,S 2,T 35,E1 0,E2 0,E3 0,E4 0,E5 0,E6 0}
DECL E6POS P2_7Aero_4_App2={X 331.39706,Y -517.46969,Z 965.28614,A 180,B 0,C -180,S 2,T 35,E1 0,E2 0,E3 0,E4 0,E5 0,E6 0}
DECL E6POS P2_7Aero_4_Place={X 371.39706,Y -517.47003,Z 815.2861,A 180,B 0,C -180,S 2,T 35,E1 0,E2 0,E3 0,E4 0,E5 0,E6 0}
;ENDFOLD

;FOLD PLACE 5
DECL E6POS P2_7Aero_5_App1={X 7.10457,Y -783.40407,Z 1286.28582,A 90,B 0,C -180,S 2,T 35,E1 0,E2 0,E3 0,E4 0,E5 0,E6 0}
DECL E6POS P2_7Aero_5_App2={X 7.10477,Y -783.40442,Z 914.35668,A 90,B 0,C -180,S 2,T 35,E1 0,E2 0,E3 0,E4 0,E5 0,E6 0}
DECL E6POS P2_7Aero_5_Place={X 7.10496,Y -733.40422,Z 814.35712,A 90,B 0,C 180,S 2,T 35,E1 0,E2 0,E3 0,E4 0,E5 0,E6 0}
;ENDFOLD

;FOLD PLACE 6
DECL E6POS P2_7Aero_6_App1={X 7.10442,Y -1101.40415,Z 1065.28623,A 90,B 0,C -180,S 2,T 35,E1 0,E2 0,E3 0,E4 0,E5 0,E6 0}
DECL E6POS P2_7Aero_6_App2={X 7.10477,Y -1101.40442,Z 914.35668,A 90,B 0,C -180,S 2,T 35,E1 0,E2 0,E3 0,E4 0,E5 0,E6 0}
DECL E6POS P2_7Aero_6_Place={X 7.10496,Y -1051.40422,Z 814.35712,A 90,B 0,C -180,S 2,T 35,E1 0,E2 0,E3 0,E4 0,E5 0,E6 0}
;ENDFOLD

;FOLD PLACE 7
DECL E6POS P2_7Aero_7_App1={X 975.39751,Y -1193.47,Z 1065.28565,A 180,B 0,C 180,S 2,T 35,E1 0,E2 0,E3 0,E4 0,E5 0,E6 0}
DECL E6POS P2_7Aero_7_App2={X 975.39706,Y -1193.47,Z 965.28614,A 180,B 0,C -180,S 2,T 35,E1 0,E2 0,E3 0,E4 0,E5 0,E6 0}
DECL E6POS P2_7Aero_7_Place={X 935.39706,Y -1153.47003,Z 815.2861,A 180,B 0,C -180,S 2,T 35,E1 0,E2 0,E3 0,E4 0,E5 0,E6 0}
;ENDFOLD

;FOLD PLACE 8
DECL E6POS P2_7Aero_8_App1={X 1293.39751,Y -1193.47,Z 1065.28565,A 180,B 0,C 180,S 2,T 35,E1 0,E2 0,E3 0,E4 0,E5 0,E6 0}
DECL E6POS P2_7Aero_8_App2={X 1293.39706,Y -1193.47,Z 965.28614,A 180,B 0,C -180,S 2,T 35,E1 0,E2 0,E3 0,E4 0,E5 0,E6 0}
DECL E6POS P2_7Aero_8_Place={X 1253.39706,Y -1153.47003,Z 815.2861,A 180,B 0,C -180,S 2,T 35,E1 0,E2 0,E3 0,E4 0,E5 0,E6 0}
;ENDFOLD

;FOLD PLACE 9
DECL E6POS P2_7Aero_9_App1={X 421.3727,Y -517.43334,Z 1015.29,A -180,B 0,C 180,S 2,T 35,E1 0,E2 0,E3 0,E4 0,E5 0,E6 0}
DECL E6POS P2_7Aero_9_App2={X 421.37317,Y -517.43292,Z 915.294,A -180,B 0,C 180,S 2,T 35,E1 0,E2 0,E3 0,E4 0,E5 0,E6 0}
DECL E6POS P2_7Aero_9_Place={X 371.37317,Y -517.43292,Z 815.294,A -180,B 0,C 180,S 2,T 35,E1 0,E2 0,E3 0,E4 0,E5 0,E6 0}
;ENDFOLD

;FOLD PLACE 10
DECL E6POS P2_7Aero_10_App1={X 739.3727,Y -517.43334,Z 1015.29,A -180,B 0,C 180,S 2,T 35,E1 0,E2 0,E3 0,E4 0,E5 0,E6 0}
DECL E6POS P2_7Aero_10_App2={X 739.37317,Y -517.43292,Z 915.294,A -180,B 0,C 180,S 2,T 35,E1 0,E2 0,E3 0,E4 0,E5 0,E6 0}
DECL E6POS P2_7Aero_10_Place={X 689.37317,Y -517.43292,Z 815.294,A -180,B 0,C 180,S 2,T 35,E1 0,E2 0,E3 0,E4 0,E5 0,E6 0}
;ENDFOLD

;FOLD PLACE 11
DECL E6POS P2_7Aero_11_App1={X 581.50069,Y -333.11164,Z 1085.3,A -90,B 0,C 180,S 2,T 35,E1 0,E2 0,E3 0,E4 0,E5 0,E6 0}
DECL E6POS P2_7Aero_11_App2={X 581.50076,Y -333.11113,Z 915.297,A -90,B 0,C 180,S 2,T 35,E1 0,E2 0,E3 0,E4 0,E5 0,E6 0}
DECL E6POS P2_7Aero_11_Place={X 531.49957,Y -283.11095,Z 815.296,A -90,B 0,C 180,S 2,T 35,E1 0,E2 0,E3 0,E4 0,E5 0,E6 0}
;ENDFOLD

;FOLD PLACE 12
DECL E6POS P2_7Aero_12_App1={X 581.50069,Y -651.11164,Z 1085.3,A -90,B 0,C 180,S 2,T 35,E1 0,E2 0,E3 0,E4 0,E5 0,E6 0}
DECL E6POS P2_7Aero_12_App2={X 581.50076,Y -651.11113,Z 915.297,A -90,B 0,C 180,S 2,T 35,E1 0,E2 0,E3 0,E4 0,E5 0,E6 0}
DECL E6POS P2_7Aero_12_Place={X 531.49957,Y -601.11095,Z 815.296,A -90,B 0,C 180,S 2,T 35,E1 0,E2 0,E3 0,E4 0,E5 0,E6 0}
;ENDFOLD

;FOLD PLACE 13
DECL E6POS P2_7Aero_13_App1={X 1220.20069,Y 33.98836,Z 1085.3,A -90,B 0,C 180,S 2,T 3,E1 0,E2 0,E3 0,E4 0,E5 0,E6 0}
DECL E6POS P2_7Aero_13_App2={X 1220.20076,Y 33.98887,Z 915.297,A -90,B 0,C 180,S 2,T 3,E1 0,E2 0,E3 0,E4 0,E5 0,E6 0}
DECL E6POS P2_7Aero_13_Place={X 1170.19957,Y 83.98905,Z 815.296,A -90,B 0,C 180,S 2,T 3,E1 0,E2 0,E3 0,E4 0,E5 0,E6 0}
;ENDFOLD

;FOLD PLACE 14
DECL E6POS P2_7Aero_14_App1={X 1220.20069,Y -284.01164,Z 1085.3,A -90,B 0,C 180,S 2,T 3,E1 0,E2 0,E3 0,E4 0,E5 0,E6 0}
DECL E6POS P2_7Aero_14_App2={X 1220.20076,Y -284.01113,Z 915.297,A -90,B 0,C 180,S 2,T 3,E1 0,E2 0,E3 0,E4 0,E5 0,E6 0}
DECL E6POS P2_7Aero_14_Place={X 1170.19957,Y -234.01095,Z 815.296,A -90,B 0,C 180,S 2,T 3,E1 0,E2 0,E3 0,E4 0,E5 0,E6 0}
;ENDFOLD

;FOLD PLACE 15
DECL E6POS P2_7Aero_15_App1={X 985.37262,Y -1193.43293,Z 1015.29,A -180,B 0,C 180,S 2,T 35,E1 0,E2 0,E3 0,E4 0,E5 0,E6 0}
DECL E6POS P2_7Aero_15_App2={X 985.37317,Y -1193.43293,Z 915.294,A -180,B 0,C 180,S 2,T 35,E1 0,E2 0,E3 0,E4 0,E5 0,E6 0}
DECL E6POS P2_7Aero_15_Place={X 935.37317,Y -1153.43293,Z 815.294,A -180,B 0,C 180,S 2,T 35,E1 0,E2 0,E3 0,E4 0,E5 0,E6 0}
;ENDFOLD

;FOLD PLACE 16
DECL E6POS P2_7Aero_16_App1={X 1303.37293,Y -1193.43293,Z 1015.29,A -180,B 0,C 180,S 2,T 35,E1 0,E2 0,E3 0,E4 0,E5 0,E6 0}
DECL E6POS P2_7Aero_16_App2={X 1303.37317,Y -1193.43293,Z 915.294,A -180,B 0,C 180,S 2,T 35,E1 0,E2 0,E3 0,E4 0,E5 0,E6 0}
DECL E6POS P2_7Aero_16_Place={X 1253.37317,Y -1153.43293,Z 815.294,A -180,B 0,C 180,S 2,T 35,E1 0,E2 0,E3 0,E4 0,E5 0,E6 0}
;ENDFOLD

;ENDFOLD

;FOLD Pallet 2 - Produto 15CoffeCrisp
;FOLD PLACE 1
DECL E6POS P2_15CoffeCrisp_1_App1={X 1209.08529,Y -554.86508,Z 1114.36101,A -180,B 0,C 180,S 2,T 35,E1 0,E2 0,E3 0,E4 0,E5 0,E6 0}
DECL E6POS P2_15CoffeCrisp_1_App2={X 1209.08509,Y -554.86523,Z 914.36072,A -180,B 0,C -180,S 2,T 35,E1 0,E2 0,E3 0,E4 0,E5 0,E6 0}
DECL E6POS P2_15CoffeCrisp_1_Place={X 1259.08509,Y -554.86523,Z 814.36072,A 180,B 0,C -180,S 2,T 35,E1 0,E2 0,E3 0,E4 0,E5 0,E6 0}
;ENDFOLD

;FOLD PLACE 2
DECL E6POS P2_15CoffeCrisp_2_App1={X 786.08496,Y -554.86512,Z 1114.36079,A 180,B 0,C 180,S 2,T 35,E1 0,E2 0,E3 0,E4 0,E5 0,E6 0}
DECL E6POS P2_15CoffeCrisp_2_App2={X 786.08509,Y -554.86523,Z 914.36072,A -180,B 0,C -180,S 2,T 35,E1 0,E2 0,E3 0,E4 0,E5 0,E6 0}
DECL E6POS P2_15CoffeCrisp_2_Place={X 836.08509,Y -554.86523,Z 814.36072,A -180,B 0,C -180,S 2,T 35,E1 0,E2 0,E3 0,E4 0,E5 0,E6 0}
;ENDFOLD

;FOLD PLACE 3
DECL E6POS P2_15CoffeCrisp_3_App1={X 651.75146,Y -771.49799,Z 1114.37243,A 90,B 0,C -180,S 2,T 35,E1 0,E2 0,E3 0,E4 0,E5 0,E6 0}
DECL E6POS P2_15CoffeCrisp_3_App2={X 651.75147,Y -771.49799,Z 914.37188,A 90,B 0,C -180,S 2,T 35,E1 0,E2 0,E3 0,E4 0,E5 0,E6 0}
DECL E6POS P2_15CoffeCrisp_3_Place={X 651.75181,Y -671.49826,Z 814.372,A 90,B 0,C -180,S 2,T 35,E1 0,E2 0,E3 0,E4 0,E5 0,E6 0}
;ENDFOLD

;FOLD PLACE 4
DECL E6POS P2_15CoffeCrisp_4_App1={X 651.7513,Y -1145.49841,Z 1114.37211,A 90,B 0,C -180,S 2,T 35,E1 0,E2 0,E3 0,E4 0,E5 0,E6 0}
DECL E6POS P2_15CoffeCrisp_4_App2={X 651.75147,Y -1145.49841,Z 914.37188,A 90,B 0,C -180,S 2,T 35,E1 0,E2 0,E3 0,E4 0,E5 0,E6 0}
DECL E6POS P2_15CoffeCrisp_4_Place={X 651.75181,Y -1045.49826,Z 814.372,A 90,B 0,C -180,S 2,T 35,E1 0,E2 0,E3 0,E4 0,E5 0,E6 0}
;ENDFOLD

;FOLD PLACE 5
DECL E6POS P2_15CoffeCrisp_5_App1={X 681.0834,Y -898.8767,Z 1114.37169,A -180,B 0,C -180,S 2,T 35,E1 0,E2 0,E3 0,E4 0,E5 0,E6 0}
DECL E6POS P2_15CoffeCrisp_5_App2={X 681.0834,Y -898.87687,Z 914.3717,A -180,B 0,C 180,S 2,T 35,E1 0,E2 0,E3 0,E4 0,E5 0,E6 0}
DECL E6POS P2_15CoffeCrisp_5_Place={X 771.08339,Y -798.87687,Z 814.3717,A -180,B 0,C 180,S 2,T 35,E1 0,E2 0,E3 0,E4 0,E5 0,E6 0}
;ENDFOLD

;FOLD PLACE 6
DECL E6POS P2_15CoffeCrisp_6_App1={X 313.08509,Y -554.86517,Z 1114.36122,A -180,B 0,C 180,S 2,T 35,E1 0,E2 0,E3 0,E4 0,E5 0,E6 0}
DECL E6POS P2_15CoffeCrisp_6_App2={X 313.08509,Y -554.86523,Z 914.36072,A -180,B 0,C -180,S 2,T 35,E1 0,E2 0,E3 0,E4 0,E5 0,E6 0}
DECL E6POS P2_15CoffeCrisp_6_Place={X 413.08509,Y -554.86523,Z 814.36072,A -180,B 0,C -180,S 2,T 35,E1 0,E2 0,E3 0,E4 0,E5 0,E6 0}
;ENDFOLD

;FOLD PLACE 7
DECL E6POS P2_15CoffeCrisp_7_App1={X 788.22872,Y -438.67868,Z 1114.36,A -180,B 0,C 180,S 2,T 35,E1 0,E2 0,E3 0,E4 0,E5 0,E6 0}
DECL E6POS P2_15CoffeCrisp_7_App2={X 788.22848,Y -438.67875,Z 914.357,A 180,B 0,C -180,S 2,T 35,E1 0,E2 0,E3 0,E4 0,E5 0,E6 0}
DECL E6POS P2_15CoffeCrisp_7_Place={X 838.2281,Y -438.67903,Z 814.357,A -180,B 0,C -180,S 2,T 35,E1 0,E2 0,E3 0,E4 0,E5 0,E6 0}
;ENDFOLD

;FOLD PLACE 8
DECL E6POS P2_15CoffeCrisp_8_App1={X 365.22848,Y -438.67885,Z 1114.36,A -180,B 0,C -180,S 2,T 35,E1 0,E2 0,E3 0,E4 0,E5 0,E6 0}
DECL E6POS P2_15CoffeCrisp_8_App2={X 365.22848,Y -438.67875,Z 914.357,A 180,B 0,C -180,S 2,T 35,E1 0,E2 0,E3 0,E4 0,E5 0,E6 0}
DECL E6POS P2_15CoffeCrisp_8_Place={X 415.2281,Y -438.67903,Z 814.357,A -180,B 0,C -180,S 2,T 35,E1 0,E2 0,E3 0,E4 0,E5 0,E6 0}
;ENDFOLD

;FOLD PLACE 9
DECL E6POS P2_15CoffeCrisp_9_App1={X 540.53668,Y -222.05909,Z 1114.36,A -90,B 0,C 180,S 2,T 35,E1 0,E2 0,E3 0,E4 0,E5 0,E6 0}
DECL E6POS P2_15CoffeCrisp_9_App2={X 540.53784,Y -222.05895,Z 914.358,A -90,B 0,C 180,S 2,T 35,E1 0,E2 0,E3 0,E4 0,E5 0,E6 0}
DECL E6POS P2_15CoffeCrisp_9_Place={X 540.53701,Y -322.0593,Z 814.358,A -90,B 0,C 180,S 2,T 35,E1 0,E2 0,E3 0,E4 0,E5 0,E6 0}
;ENDFOLD

;FOLD PLACE 10
DECL E6POS P2_15CoffeCrisp_10_App1={X 540.53668,Y 151.94091,Z 1114.36,A -90,B 0,C 180,S 2,T 35,E1 0,E2 0,E3 0,E4 0,E5 0,E6 0}
DECL E6POS P2_15CoffeCrisp_10_App2={X 540.53784,Y 151.94105,Z 914.358,A -90,B 0,C 180,S 2,T 35,E1 0,E2 0,E3 0,E4 0,E5 0,E6 0}
DECL E6POS P2_15CoffeCrisp_10_Place={X 540.53701,Y 51.9407,Z 814.358,A -90,B 0,C 180,S 2,T 35,E1 0,E2 0,E3 0,E4 0,E5 0,E6 0}
;ENDFOLD

;FOLD PLACE 11
DECL E6POS P2_15CoffeCrisp_11_App1={X 1003.22856,Y -104.67878,Z 1114.36,A -180,B 0,C -180,S 2,T 35,E1 0,E2 0,E3 0,E4 0,E5 0,E6 0}
DECL E6POS P2_15CoffeCrisp_11_App2={X 1003.22856,Y -104.67863,Z 914.357,A 180,B 0,C -180,S 2,T 35,E1 0,E2 0,E3 0,E4 0,E5 0,E6 0}
DECL E6POS P2_15CoffeCrisp_11_Place={X 903.22856,Y -194.67863,Z 814.357,A 180,B 0,C -180,S 2,T 35,E1 0,E2 0,E3 0,E4 0,E5 0,E6 0}
;ENDFOLD

;FOLD PLACE 12
DECL E6POS P2_15CoffeCrisp_12_App1={X 1351.22848,Y -438.67881,Z 1114.36,A -180,B 0,C -180,S 2,T 35,E1 0,E2 0,E3 0,E4 0,E5 0,E6 0}
DECL E6POS P2_15CoffeCrisp_12_App2={X 1351.22848,Y -438.67875,Z 914.357,A 180,B 0,C -180,S 2,T 35,E1 0,E2 0,E3 0,E4 0,E5 0,E6 0}
DECL E6POS P2_15CoffeCrisp_12_Place={X 1261.2281,Y -438.67903,Z 814.357,A -180,B 0,C -180,S 2,T 35,E1 0,E2 0,E3 0,E4 0,E5 0,E6 0}
;ENDFOLD

;ENDFOLD

